<?xml version="1.0" encoding="UTF-8"?>
<map version="1.10" tiledversion="1.10.2" orientation="orthogonal" renderorder="right-down" compressionlevel="0" width="3" height="7" tilewidth="16" tileheight="16" infinite="0" nextlayerid="19" nextobjectid="23">
  <tileset firstgid="1" name="desert-extended" tilewidth="16" tileheight="16" tilecount="33" columns="3">
    <image source="DesertTiles_Extended" width="48" height="176" />
  </tileset>
  <tileset firstgid="34" name="desert-festival" tilewidth="16" tileheight="16" tilecount="1088" columns="32">
    <image source="desert_festival_tilesheet" width="512" height="544" />
    <tile id="17">
      <properties>
        <property name="Type" value="Dirt" />
      </properties>
    </tile>
    <tile id="26">
      <properties>
        <property name="Type" value="Stone" />
      </properties>
    </tile>
    <tile id="27">
      <properties>
        <property name="Type" value="Stone" />
      </properties>
    </tile>
    <tile id="28">
      <properties>
        <property name="Type" value="Stone" />
      </properties>
    </tile>
    <tile id="29">
      <properties>
        <property name="Type" value="Stone" />
      </properties>
    </tile>
    <tile id="30">
      <properties>
        <property name="Type" value="Stone" />
      </properties>
    </tile>
    <tile id="31">
      <properties>
        <property name="Type" value="Stone" />
      </properties>
    </tile>
    <tile id="49">
      <properties>
        <property name="Type" value="Dirt" />
      </properties>
    </tile>
    <tile id="58">
      <properties>
        <property name="Type" value="Stone" />
      </properties>
    </tile>
    <tile id="59">
      <properties>
        <property name="Type" value="Stone" />
      </properties>
    </tile>
    <tile id="60">
      <properties>
        <property name="Type" value="Stone" />
      </properties>
    </tile>
    <tile id="61">
      <properties>
        <property name="Type" value="Stone" />
      </properties>
    </tile>
    <tile id="62">
      <properties>
        <property name="Type" value="Stone" />
      </properties>
    </tile>
    <tile id="63">
      <properties>
        <property name="Type" value="Stone" />
      </properties>
    </tile>
    <tile id="81">
      <properties>
        <property name="Type" value="Stone" />
      </properties>
    </tile>
    <tile id="90">
      <properties>
        <property name="Type" value="Stone" />
      </properties>
    </tile>
    <tile id="91">
      <properties>
        <property name="Type" value="Stone" />
      </properties>
    </tile>
    <tile id="92">
      <properties>
        <property name="Type" value="Stone" />
      </properties>
    </tile>
    <tile id="93">
      <properties>
        <property name="Type" value="Stone" />
      </properties>
    </tile>
    <tile id="94">
      <properties>
        <property name="Type" value="Stone" />
      </properties>
    </tile>
    <tile id="95">
      <properties>
        <property name="Type" value="Stone" />
      </properties>
    </tile>
    <tile id="122">
      <properties>
        <property name="Type" value="Stone" />
      </properties>
    </tile>
    <tile id="123">
      <properties>
        <property name="Type" value="Stone" />
      </properties>
    </tile>
    <tile id="124">
      <properties>
        <property name="Type" value="Stone" />
      </properties>
    </tile>
    <tile id="125">
      <properties>
        <property name="Type" value="Stone" />
      </properties>
    </tile>
    <tile id="126">
      <properties>
        <property name="Type" value="Stone" />
      </properties>
    </tile>
    <tile id="127">
      <properties>
        <property name="Type" value="Stone" />
      </properties>
    </tile>
    <tile id="142">
      <properties>
        <property name="Type" value="Dirt" />
      </properties>
    </tile>
    <tile id="143">
      <properties>
        <property name="Type" value="Dirt" />
      </properties>
    </tile>
    <tile id="145">
      <properties>
        <property name="Type" value="Dirt" />
      </properties>
    </tile>
    <tile id="154">
      <properties>
        <property name="Type" value="Stone" />
      </properties>
    </tile>
    <tile id="155">
      <properties>
        <property name="Type" value="Stone" />
      </properties>
    </tile>
    <tile id="156">
      <properties>
        <property name="Type" value="Stone" />
      </properties>
    </tile>
    <tile id="157">
      <properties>
        <property name="Type" value="Stone" />
      </properties>
    </tile>
    <tile id="158">
      <properties>
        <property name="Type" value="Stone" />
      </properties>
    </tile>
    <tile id="159">
      <properties>
        <property name="Type" value="Stone" />
      </properties>
    </tile>
    <tile id="160">
      <properties>
        <property name="Type" value="Dirt" />
      </properties>
    </tile>
    <tile id="174">
      <properties>
        <property name="Type" value="dirt" />
      </properties>
    </tile>
    <tile id="175">
      <properties>
        <property name="Type" value="Stone" />
      </properties>
    </tile>
    <tile id="176">
      <properties>
        <property name="Type" value="Stone" />
      </properties>
    </tile>
    <tile id="177">
      <properties>
        <property name="Type" value="Stone" />
      </properties>
    </tile>
    <tile id="178">
      <properties>
        <property name="Type" value="Stone" />
      </properties>
    </tile>
    <tile id="181">
      <properties>
        <property name="Type" value="Dirt" />
      </properties>
    </tile>
    <tile id="182">
      <properties>
        <property name="Type" value="Dirt" />
      </properties>
    </tile>
    <tile id="183">
      <properties>
        <property name="Type" value="Dirt" />
      </properties>
    </tile>
    <tile id="186">
      <properties>
        <property name="Type" value="Dirt" />
      </properties>
    </tile>
    <tile id="187">
      <properties>
        <property name="Type" value="Dirt" />
      </properties>
    </tile>
    <tile id="188">
      <properties>
        <property name="Type" value="Dirt" />
      </properties>
    </tile>
    <tile id="189">
      <properties>
        <property name="Type" value="Dirt" />
      </properties>
    </tile>
    <tile id="190">
      <properties>
        <property name="Type" value="Dirt" />
      </properties>
    </tile>
    <tile id="191">
      <properties>
        <property name="Type" value="Dirt" />
      </properties>
    </tile>
    <tile id="194">
      <properties>
        <property name="Type" value="Dirt" />
      </properties>
    </tile>
    <tile id="195">
      <properties>
        <property name="Type" value="Dirt" />
      </properties>
    </tile>
    <tile id="196">
      <properties>
        <property name="Type" value="Dirt" />
      </properties>
    </tile>
    <tile id="197">
      <properties>
        <property name="Type" value="Dirt" />
      </properties>
    </tile>
    <tile id="198">
      <properties>
        <property name="Type" value="Dirt" />
      </properties>
    </tile>
    <tile id="206">
      <properties>
        <property name="Type" value="dirt" />
      </properties>
    </tile>
    <tile id="207">
      <properties>
        <property name="Type" value="Stone" />
      </properties>
    </tile>
    <tile id="208">
      <properties>
        <property name="Type" value="Stone" />
      </properties>
    </tile>
    <tile id="209">
      <properties>
        <property name="Type" value="Stone" />
      </properties>
    </tile>
    <tile id="210">
      <properties>
        <property name="Type" value="Stone" />
      </properties>
    </tile>
    <tile id="212">
      <properties>
        <property name="Type" value="Dirt" />
      </properties>
    </tile>
    <tile id="213">
      <properties>
        <property name="Type" value="Dirt" />
      </properties>
    </tile>
    <tile id="214">
      <properties>
        <property name="Type" value="Dirt" />
      </properties>
    </tile>
    <tile id="215">
      <properties>
        <property name="Type" value="Dirt" />
      </properties>
    </tile>
    <tile id="218">
      <properties>
        <property name="Type" value="Dirt" />
      </properties>
    </tile>
    <tile id="219">
      <properties>
        <property name="Type" value="Dirt" />
      </properties>
    </tile>
    <tile id="220">
      <properties>
        <property name="Type" value="Dirt" />
      </properties>
    </tile>
    <tile id="221">
      <properties>
        <property name="Type" value="Dirt" />
      </properties>
    </tile>
    <tile id="222">
      <properties>
        <property name="Type" value="Dirt" />
      </properties>
    </tile>
    <tile id="223">
      <properties>
        <property name="Type" value="Dirt" />
      </properties>
    </tile>
    <tile id="226">
      <properties>
        <property name="Type" value="Dirt" />
      </properties>
    </tile>
    <tile id="227">
      <properties>
        <property name="Type" value="Dirt" />
      </properties>
    </tile>
    <tile id="228">
      <properties>
        <property name="Type" value="Dirt" />
      </properties>
    </tile>
    <tile id="229">
      <properties>
        <property name="Type" value="Dirt" />
      </properties>
    </tile>
    <tile id="235">
      <properties>
        <property name="Type" value="Wood" />
      </properties>
    </tile>
    <tile id="236">
      <properties>
        <property name="Type" value="Wood" />
      </properties>
    </tile>
    <tile id="237">
      <properties>
        <property name="Type" value="Wood" />
      </properties>
    </tile>
    <tile id="238">
      <properties>
        <property name="Type" value="Stone" />
      </properties>
    </tile>
    <tile id="239">
      <properties>
        <property name="Type" value="Dirt" />
      </properties>
    </tile>
    <tile id="240">
      <properties>
        <property name="Type" value="Dirt" />
      </properties>
    </tile>
    <tile id="241">
      <properties>
        <property name="Type" value="Dirt" />
      </properties>
    </tile>
    <tile id="242">
      <properties>
        <property name="Type" value="Dirt" />
      </properties>
    </tile>
    <tile id="244">
      <properties>
        <property name="Type" value="Dirt" />
      </properties>
    </tile>
    <tile id="245">
      <properties>
        <property name="Type" value="Dirt" />
      </properties>
    </tile>
    <tile id="254">
      <properties>
        <property name="Type" value="Dirt" />
      </properties>
    </tile>
    <tile id="255">
      <properties>
        <property name="Type" value="Dirt" />
      </properties>
    </tile>
    <tile id="267">
      <properties>
        <property name="Type" value="Wood" />
      </properties>
    </tile>
    <tile id="268">
      <properties>
        <property name="Type" value="Wood" />
      </properties>
    </tile>
    <tile id="269">
      <properties>
        <property name="Type" value="Wood" />
      </properties>
    </tile>
    <tile id="270">
      <properties>
        <property name="Type" value="Stone" />
      </properties>
    </tile>
    <tile id="271">
      <properties>
        <property name="Type" value="Dirt" />
      </properties>
    </tile>
    <tile id="272">
      <properties>
        <property name="Type" value="Dirt" />
      </properties>
    </tile>
    <tile id="273">
      <properties>
        <property name="Type" value="Dirt" />
      </properties>
    </tile>
    <tile id="274">
      <properties>
        <property name="Type" value="Dirt" />
      </properties>
    </tile>
    <tile id="276">
      <properties>
        <property name="Type" value="Stone" />
      </properties>
    </tile>
    <tile id="286">
      <properties>
        <property name="Type" value="Dirt" />
      </properties>
    </tile>
    <tile id="287">
      <properties>
        <property name="Type" value="Dirt" />
      </properties>
    </tile>
    <tile id="299">
      <properties>
        <property name="Type" value="Wood" />
      </properties>
    </tile>
    <tile id="300">
      <properties>
        <property name="Type" value="Wood" />
      </properties>
    </tile>
    <tile id="301">
      <properties>
        <property name="Type" value="Wood" />
      </properties>
    </tile>
    <tile id="302">
      <properties>
        <property name="Type" value="Stone" />
      </properties>
    </tile>
    <tile id="303">
      <properties>
        <property name="Type" value="Dirt" />
      </properties>
    </tile>
    <tile id="304">
      <properties>
        <property name="Type" value="Dirt" />
      </properties>
    </tile>
    <tile id="305">
      <properties>
        <property name="Type" value="Dirt" />
      </properties>
    </tile>
    <tile id="306">
      <properties>
        <property name="Type" value="Dirt" />
      </properties>
    </tile>
    <tile id="308">
      <properties>
        <property name="Type" value="Stone" />
      </properties>
    </tile>
    <tile id="318">
      <properties>
        <property name="Type" value="Dirt" />
      </properties>
    </tile>
    <tile id="319">
      <properties>
        <property name="Type" value="Dirt" />
      </properties>
    </tile>
    <tile id="335">
      <properties>
        <property name="Type" value="Dirt" />
      </properties>
    </tile>
    <tile id="336">
      <properties>
        <property name="Type" value="Dirt" />
      </properties>
    </tile>
    <tile id="337">
      <properties>
        <property name="Type" value="Dirt" />
      </properties>
    </tile>
    <tile id="338">
      <properties>
        <property name="Type" value="Dirt" />
      </properties>
    </tile>
    <tile id="340">
      <properties>
        <property name="Type" value="Stone" />
      </properties>
    </tile>
    <tile id="348">
      <properties>
        <property name="Type" value="Dirt" />
      </properties>
    </tile>
    <tile id="349">
      <properties>
        <property name="Type" value="Dirt" />
      </properties>
    </tile>
    <tile id="350">
      <properties>
        <property name="Type" value="Dirt" />
      </properties>
    </tile>
    <tile id="351">
      <properties>
        <property name="Type" value="Dirt" />
      </properties>
    </tile>
    <tile id="367">
      <properties>
        <property name="Type" value="Dirt" />
      </properties>
    </tile>
    <tile id="368">
      <properties>
        <property name="Type" value="Dirt" />
      </properties>
    </tile>
    <tile id="369">
      <properties>
        <property name="Type" value="Dirt" />
      </properties>
    </tile>
    <tile id="372">
      <properties>
        <property name="Type" value="Stone" />
      </properties>
    </tile>
    <tile id="376">
      <properties>
        <property name="Type" value="Dirt" />
      </properties>
    </tile>
    <tile id="377">
      <properties>
        <property name="Type" value="Dirt" />
      </properties>
    </tile>
    <tile id="378">
      <properties>
        <property name="Type" value="Dirt" />
      </properties>
    </tile>
    <tile id="402">
      <properties>
        <property name="Type" value="Dirt" />
      </properties>
    </tile>
    <tile id="403">
      <properties>
        <property name="Type" value="Dirt" />
      </properties>
    </tile>
    <tile id="404">
      <properties>
        <property name="Type" value="Dirt" />
      </properties>
    </tile>
    <tile id="408">
      <properties>
        <property name="Type" value="Dirt" />
      </properties>
    </tile>
    <tile id="409">
      <properties>
        <property name="Type" value="Dirt" />
      </properties>
    </tile>
    <tile id="410">
      <properties>
        <property name="Type" value="Dirt" />
      </properties>
    </tile>
    <tile id="411">
      <animation>
        <frame tileid="411" duration="500" />
        <frame tileid="414" duration="500" />
        <frame tileid="411" duration="500" />
        <frame tileid="414" duration="500" />
        <frame tileid="411" duration="500" />
        <frame tileid="414" duration="500" />
        <frame tileid="411" duration="500" />
        <frame tileid="414" duration="500" />
        <frame tileid="412" duration="500" />
        <frame tileid="412" duration="500" />
        <frame tileid="412" duration="500" />
        <frame tileid="412" duration="500" />
        <frame tileid="412" duration="500" />
        <frame tileid="414" duration="500" />
        <frame tileid="412" duration="500" />
        <frame tileid="412" duration="500" />
        <frame tileid="412" duration="500" />
        <frame tileid="412" duration="500" />
        <frame tileid="412" duration="500" />
      </animation>
    </tile>
    <tile id="443">
      <animation>
        <frame tileid="443" duration="500" />
        <frame tileid="446" duration="500" />
        <frame tileid="443" duration="500" />
        <frame tileid="446" duration="500" />
        <frame tileid="443" duration="500" />
        <frame tileid="446" duration="500" />
        <frame tileid="443" duration="500" />
        <frame tileid="446" duration="500" />
        <frame tileid="444" duration="500" />
        <frame tileid="444" duration="500" />
        <frame tileid="444" duration="500" />
        <frame tileid="444" duration="500" />
        <frame tileid="445" duration="500" />
        <frame tileid="446" duration="500" />
        <frame tileid="445" duration="500" />
        <frame tileid="444" duration="500" />
        <frame tileid="444" duration="500" />
        <frame tileid="444" duration="500" />
        <frame tileid="444" duration="500" />
      </animation>
    </tile>
    <tile id="467">
      <properties>
        <property name="Type" value="dirt" />
      </properties>
    </tile>
    <tile id="468">
      <properties>
        <property name="Type" value="dirt" />
      </properties>
    </tile>
    <tile id="472">
      <properties>
        <property name="Type" value="Dirt" />
      </properties>
    </tile>
    <tile id="473">
      <properties>
        <property name="Type" value="Dirt" />
      </properties>
    </tile>
    <tile id="474">
      <properties>
        <property name="Type" value="Dirt" />
      </properties>
    </tile>
    <tile id="475">
      <properties>
        <property name="Type" value="Dirt" />
      </properties>
    </tile>
    <tile id="476">
      <properties>
        <property name="Type" value="Dirt" />
      </properties>
    </tile>
    <tile id="483">
      <animation>
        <frame tileid="483" duration="200" />
        <frame tileid="483" duration="200" />
        <frame tileid="483" duration="200" />
        <frame tileid="483" duration="200" />
        <frame tileid="483" duration="200" />
        <frame tileid="483" duration="200" />
        <frame tileid="483" duration="200" />
        <frame tileid="483" duration="200" />
        <frame tileid="293" duration="200" />
        <frame tileid="483" duration="200" />
        <frame tileid="483" duration="200" />
        <frame tileid="483" duration="200" />
        <frame tileid="483" duration="200" />
        <frame tileid="483" duration="200" />
        <frame tileid="483" duration="200" />
        <frame tileid="325" duration="200" />
        <frame tileid="325" duration="200" />
        <frame tileid="325" duration="200" />
        <frame tileid="325" duration="200" />
        <frame tileid="483" duration="200" />
        <frame tileid="483" duration="200" />
        <frame tileid="483" duration="200" />
        <frame tileid="483" duration="200" />
        <frame tileid="483" duration="200" />
        <frame tileid="293" duration="200" />
        <frame tileid="483" duration="200" />
        <frame tileid="483" duration="200" />
        <frame tileid="483" duration="200" />
        <frame tileid="483" duration="200" />
        <frame tileid="483" duration="200" />
        <frame tileid="483" duration="200" />
        <frame tileid="325" duration="200" />
        <frame tileid="325" duration="200" />
        <frame tileid="325" duration="200" />
        <frame tileid="325" duration="200" />
        <frame tileid="325" duration="200" />
        <frame tileid="325" duration="200" />
        <frame tileid="325" duration="200" />
        <frame tileid="325" duration="200" />
        <frame tileid="325" duration="200" />
        <frame tileid="325" duration="200" />
        <frame tileid="483" duration="200" />
        <frame tileid="544" duration="200" />
        <frame tileid="544" duration="200" />
        <frame tileid="544" duration="200" />
        <frame tileid="544" duration="200" />
        <frame tileid="544" duration="200" />
        <frame tileid="544" duration="200" />
        <frame tileid="544" duration="200" />
        <frame tileid="544" duration="200" />
        <frame tileid="483" duration="200" />
        <frame tileid="483" duration="200" />
        <frame tileid="483" duration="200" />
        <frame tileid="293" duration="200" />
        <frame tileid="483" duration="200" />
        <frame tileid="293" duration="200" />
        <frame tileid="483" duration="200" />
        <frame tileid="483" duration="200" />
        <frame tileid="483" duration="200" />
        <frame tileid="483" duration="200" />
        <frame tileid="483" duration="200" />
      </animation>
    </tile>
    <tile id="495">
      <properties>
        <property name="Type" value="Dirt" />
      </properties>
    </tile>
    <tile id="496">
      <properties>
        <property name="Type" value="Dirt" />
      </properties>
    </tile>
    <tile id="497">
      <properties>
        <property name="Type" value="Dirt" />
      </properties>
    </tile>
    <tile id="498">
      <properties>
        <property name="Type" value="Dirt" />
      </properties>
    </tile>
    <tile id="499">
      <properties>
        <property name="Type" value="Dirt" />
      </properties>
    </tile>
    <tile id="504">
      <properties>
        <property name="Type" value="Dirt" />
      </properties>
    </tile>
    <tile id="505">
      <properties>
        <property name="Type" value="Dirt" />
      </properties>
    </tile>
    <tile id="506">
      <properties>
        <property name="Type" value="Dirt" />
      </properties>
    </tile>
    <tile id="507">
      <properties>
        <property name="Type" value="Dirt" />
      </properties>
    </tile>
    <tile id="508">
      <properties>
        <property name="Type" value="Dirt" />
      </properties>
    </tile>
    <tile id="527">
      <properties>
        <property name="Type" value="Dirt" />
      </properties>
    </tile>
    <tile id="528">
      <properties>
        <property name="Type" value="Dirt" />
      </properties>
    </tile>
    <tile id="529">
      <properties>
        <property name="Type" value="Dirt" />
      </properties>
    </tile>
    <tile id="530">
      <properties>
        <property name="Type" value="Dirt" />
      </properties>
    </tile>
    <tile id="531">
      <properties>
        <property name="Type" value="Dirt" />
      </properties>
    </tile>
    <tile id="538">
      <properties>
        <property name="Type" value="Dirt" />
      </properties>
    </tile>
    <tile id="539">
      <properties>
        <property name="Type" value="Dirt" />
      </properties>
    </tile>
    <tile id="540">
      <properties>
        <property name="Type" value="Dirt" />
      </properties>
    </tile>
    <tile id="559">
      <properties>
        <property name="Type" value="Dirt" />
      </properties>
    </tile>
    <tile id="560">
      <properties>
        <property name="Type" value="Dirt" />
      </properties>
    </tile>
    <tile id="561">
      <properties>
        <property name="Type" value="Dirt" />
      </properties>
    </tile>
    <tile id="562">
      <properties>
        <property name="Type" value="Dirt" />
      </properties>
    </tile>
    <tile id="563">
      <properties>
        <property name="Type" value="Dirt" />
      </properties>
    </tile>
    <tile id="613">
      <animation>
        <frame tileid="613" duration="500" />
        <frame tileid="615" duration="500" />
        <frame tileid="613" duration="500" />
        <frame tileid="615" duration="500" />
        <frame tileid="613" duration="500" />
        <frame tileid="647" duration="500" />
        <frame tileid="613" duration="500" />
        <frame tileid="647" duration="500" />
        <frame tileid="613" duration="500" />
      </animation>
    </tile>
    <tile id="614">
      <animation>
        <frame tileid="614" duration="500" />
        <frame tileid="616" duration="500" />
        <frame tileid="614" duration="500" />
        <frame tileid="616" duration="500" />
        <frame tileid="614" duration="500" />
        <frame tileid="648" duration="500" />
        <frame tileid="614" duration="500" />
        <frame tileid="648" duration="500" />
        <frame tileid="614" duration="500" />
      </animation>
    </tile>
    <tile id="643">
      <animation>
        <frame tileid="643" duration="250" />
        <frame tileid="643" duration="250" />
        <frame tileid="643" duration="250" />
        <frame tileid="707" duration="250" />
        <frame tileid="709" duration="250" />
        <frame tileid="709" duration="250" />
        <frame tileid="709" duration="250" />
        <frame tileid="707" duration="250" />
      </animation>
    </tile>
    <tile id="644">
      <animation>
        <frame tileid="644" duration="250" />
        <frame tileid="644" duration="250" />
        <frame tileid="644" duration="250" />
        <frame tileid="708" duration="250" />
        <frame tileid="710" duration="250" />
        <frame tileid="710" duration="250" />
        <frame tileid="710" duration="250" />
        <frame tileid="708" duration="250" />
      </animation>
    </tile>
    <tile id="660">
      <properties>
        <property name="Type" value="Dirt" />
      </properties>
    </tile>
    <tile id="661">
      <properties>
        <property name="Type" value="Dirt" />
      </properties>
    </tile>
    <tile id="662">
      <properties>
        <property name="Type" value="Dirt" />
      </properties>
    </tile>
    <tile id="663">
      <properties>
        <property name="Type" value="Dirt" />
      </properties>
    </tile>
    <tile id="664">
      <properties>
        <property name="Type" value="Dirt" />
      </properties>
    </tile>
    <tile id="665">
      <properties>
        <property name="Type" value="Dirt" />
      </properties>
    </tile>
    <tile id="675">
      <animation>
        <frame tileid="675" duration="250" />
        <frame tileid="675" duration="250" />
        <frame tileid="675" duration="250" />
        <frame tileid="739" duration="250" />
        <frame tileid="741" duration="250" />
        <frame tileid="741" duration="250" />
        <frame tileid="741" duration="250" />
        <frame tileid="739" duration="250" />
      </animation>
    </tile>
    <tile id="676">
      <animation>
        <frame tileid="676" duration="250" />
        <frame tileid="676" duration="250" />
        <frame tileid="676" duration="250" />
        <frame tileid="740" duration="250" />
        <frame tileid="742" duration="250" />
        <frame tileid="742" duration="250" />
        <frame tileid="742" duration="250" />
        <frame tileid="740" duration="250" />
      </animation>
    </tile>
    <tile id="687">
      <animation>
        <frame tileid="687" duration="500" />
        <frame tileid="689" duration="500" />
      </animation>
    </tile>
    <tile id="690">
      <animation>
        <frame tileid="690" duration="250" />
        <frame tileid="690" duration="250" />
        <frame tileid="690" duration="250" />
        <frame tileid="690" duration="250" />
        <frame tileid="690" duration="250" />
        <frame tileid="690" duration="250" />
        <frame tileid="690" duration="250" />
        <frame tileid="690" duration="250" />
        <frame tileid="690" duration="250" />
        <frame tileid="691" duration="250" />
        <frame tileid="690" duration="250" />
        <frame tileid="690" duration="250" />
        <frame tileid="690" duration="250" />
        <frame tileid="690" duration="250" />
        <frame tileid="690" duration="250" />
        <frame tileid="690" duration="250" />
        <frame tileid="690" duration="250" />
        <frame tileid="691" duration="250" />
        <frame tileid="690" duration="250" />
        <frame tileid="690" duration="250" />
        <frame tileid="690" duration="250" />
        <frame tileid="690" duration="250" />
        <frame tileid="690" duration="250" />
        <frame tileid="690" duration="250" />
        <frame tileid="690" duration="250" />
        <frame tileid="690" duration="250" />
        <frame tileid="690" duration="250" />
        <frame tileid="690" duration="250" />
        <frame tileid="690" duration="250" />
        <frame tileid="690" duration="250" />
      </animation>
    </tile>
    <tile id="692">
      <properties>
        <property name="Type" value="Dirt" />
      </properties>
    </tile>
    <tile id="693">
      <properties>
        <property name="Type" value="Dirt" />
      </properties>
    </tile>
    <tile id="694">
      <properties>
        <property name="Type" value="Dirt" />
      </properties>
    </tile>
    <tile id="695">
      <properties>
        <property name="Type" value="Dirt" />
      </properties>
    </tile>
    <tile id="696">
      <properties>
        <property name="Type" value="Dirt" />
      </properties>
    </tile>
    <tile id="697">
      <properties>
        <property name="Type" value="Dirt" />
      </properties>
    </tile>
    <tile id="724">
      <properties>
        <property name="Type" value="Dirt" />
      </properties>
    </tile>
    <tile id="725">
      <properties>
        <property name="Type" value="Dirt" />
      </properties>
    </tile>
    <tile id="726">
      <properties>
        <property name="Type" value="Dirt" />
      </properties>
    </tile>
    <tile id="727">
      <properties>
        <property name="Type" value="Dirt" />
      </properties>
    </tile>
    <tile id="755">
      <properties>
        <property name="Type" value="Dirt" />
      </properties>
    </tile>
    <tile id="756">
      <properties>
        <property name="Type" value="Dirt" />
      </properties>
    </tile>
    <tile id="757">
      <properties>
        <property name="Type" value="Dirt" />
      </properties>
    </tile>
    <tile id="760">
      <animation>
        <frame tileid="760" duration="1000" />
        <frame tileid="760" duration="1000" />
        <frame tileid="753" duration="1000" />
      </animation>
    </tile>
    <tile id="761">
      <animation>
        <frame tileid="761" duration="1000" />
        <frame tileid="761" duration="1000" />
        <frame tileid="754" duration="1000" />
      </animation>
    </tile>
    <tile id="764">
      <animation>
        <frame tileid="764" duration="100" />
        <frame tileid="764" duration="100" />
        <frame tileid="764" duration="100" />
        <frame tileid="764" duration="100" />
        <frame tileid="764" duration="100" />
        <frame tileid="764" duration="100" />
        <frame tileid="764" duration="100" />
        <frame tileid="764" duration="100" />
        <frame tileid="764" duration="100" />
        <frame tileid="764" duration="100" />
        <frame tileid="625" duration="100" />
        <frame tileid="627" duration="100" />
        <frame tileid="625" duration="100" />
        <frame tileid="764" duration="100" />
        <frame tileid="764" duration="100" />
        <frame tileid="764" duration="100" />
        <frame tileid="764" duration="100" />
        <frame tileid="764" duration="100" />
        <frame tileid="764" duration="100" />
        <frame tileid="764" duration="100" />
        <frame tileid="764" duration="100" />
        <frame tileid="764" duration="100" />
        <frame tileid="764" duration="100" />
        <frame tileid="629" duration="100" />
        <frame tileid="631" duration="100" />
        <frame tileid="635" duration="100" />
        <frame tileid="631" duration="100" />
        <frame tileid="633" duration="100" />
        <frame tileid="631" duration="100" />
        <frame tileid="635" duration="100" />
        <frame tileid="631" duration="100" />
        <frame tileid="629" duration="100" />
        <frame tileid="764" duration="100" />
        <frame tileid="764" duration="100" />
        <frame tileid="764" duration="100" />
        <frame tileid="764" duration="100" />
        <frame tileid="764" duration="100" />
        <frame tileid="764" duration="100" />
        <frame tileid="764" duration="100" />
        <frame tileid="764" duration="100" />
        <frame tileid="764" duration="100" />
        <frame tileid="764" duration="100" />
        <frame tileid="625" duration="100" />
        <frame tileid="627" duration="100" />
        <frame tileid="625" duration="100" />
        <frame tileid="764" duration="100" />
        <frame tileid="764" duration="100" />
        <frame tileid="764" duration="100" />
        <frame tileid="764" duration="100" />
        <frame tileid="764" duration="100" />
        <frame tileid="625" duration="100" />
        <frame tileid="627" duration="100" />
        <frame tileid="625" duration="100" />
        <frame tileid="764" duration="100" />
        <frame tileid="764" duration="100" />
        <frame tileid="764" duration="100" />
        <frame tileid="764" duration="100" />
        <frame tileid="764" duration="100" />
      </animation>
    </tile>
    <tile id="765">
      <animation>
        <frame tileid="765" duration="100" />
        <frame tileid="765" duration="100" />
        <frame tileid="765" duration="100" />
        <frame tileid="765" duration="100" />
        <frame tileid="765" duration="100" />
        <frame tileid="765" duration="100" />
        <frame tileid="765" duration="100" />
        <frame tileid="765" duration="100" />
        <frame tileid="765" duration="100" />
        <frame tileid="765" duration="100" />
        <frame tileid="626" duration="100" />
        <frame tileid="628" duration="100" />
        <frame tileid="626" duration="100" />
        <frame tileid="765" duration="100" />
        <frame tileid="765" duration="100" />
        <frame tileid="765" duration="100" />
        <frame tileid="765" duration="100" />
        <frame tileid="765" duration="100" />
        <frame tileid="765" duration="100" />
        <frame tileid="765" duration="100" />
        <frame tileid="765" duration="100" />
        <frame tileid="765" duration="100" />
        <frame tileid="765" duration="100" />
        <frame tileid="630" duration="100" />
        <frame tileid="632" duration="100" />
        <frame tileid="636" duration="100" />
        <frame tileid="632" duration="100" />
        <frame tileid="634" duration="100" />
        <frame tileid="632" duration="100" />
        <frame tileid="636" duration="100" />
        <frame tileid="632" duration="100" />
        <frame tileid="630" duration="100" />
        <frame tileid="765" duration="100" />
        <frame tileid="765" duration="100" />
        <frame tileid="765" duration="100" />
        <frame tileid="765" duration="100" />
        <frame tileid="765" duration="100" />
        <frame tileid="765" duration="100" />
        <frame tileid="765" duration="100" />
        <frame tileid="765" duration="100" />
        <frame tileid="765" duration="100" />
        <frame tileid="765" duration="100" />
        <frame tileid="626" duration="100" />
        <frame tileid="628" duration="100" />
        <frame tileid="626" duration="100" />
        <frame tileid="765" duration="100" />
        <frame tileid="765" duration="100" />
        <frame tileid="765" duration="100" />
        <frame tileid="765" duration="100" />
        <frame tileid="765" duration="100" />
        <frame tileid="626" duration="100" />
        <frame tileid="628" duration="100" />
        <frame tileid="626" duration="100" />
        <frame tileid="765" duration="100" />
        <frame tileid="765" duration="100" />
        <frame tileid="765" duration="100" />
        <frame tileid="765" duration="100" />
        <frame tileid="765" duration="100" />
      </animation>
    </tile>
    <tile id="768">
      <animation>
        <frame tileid="768" duration="250" />
        <frame tileid="768" duration="250" />
        <frame tileid="768" duration="250" />
        <frame tileid="768" duration="250" />
        <frame tileid="768" duration="250" />
        <frame tileid="768" duration="250" />
        <frame tileid="768" duration="250" />
        <frame tileid="768" duration="250" />
        <frame tileid="768" duration="250" />
        <frame tileid="768" duration="250" />
        <frame tileid="768" duration="250" />
        <frame tileid="768" duration="250" />
        <frame tileid="768" duration="250" />
        <frame tileid="768" duration="250" />
        <frame tileid="768" duration="250" />
        <frame tileid="768" duration="250" />
        <frame tileid="768" duration="250" />
        <frame tileid="768" duration="250" />
        <frame tileid="768" duration="250" />
        <frame tileid="768" duration="250" />
        <frame tileid="769" duration="250" />
        <frame tileid="770" duration="250" />
        <frame tileid="770" duration="250" />
        <frame tileid="770" duration="250" />
        <frame tileid="769" duration="250" />
      </animation>
    </tile>
    <tile id="776">
      <animation>
        <frame tileid="776" duration="250" />
        <frame tileid="776" duration="250" />
        <frame tileid="775" duration="250" />
        <frame tileid="775" duration="250" />
        <frame tileid="776" duration="250" />
        <frame tileid="776" duration="250" />
        <frame tileid="775" duration="250" />
        <frame tileid="775" duration="250" />
        <frame tileid="776" duration="250" />
        <frame tileid="776" duration="250" />
        <frame tileid="777" duration="250" />
        <frame tileid="778" duration="250" />
        <frame tileid="777" duration="250" />
        <frame tileid="776" duration="250" />
        <frame tileid="777" duration="250" />
        <frame tileid="778" duration="250" />
        <frame tileid="777" duration="250" />
      </animation>
    </tile>
    <tile id="787">
      <properties>
        <property name="Type" value="Dirt" />
      </properties>
    </tile>
    <tile id="788">
      <properties>
        <property name="Type" value="Dirt" />
      </properties>
    </tile>
    <tile id="789">
      <properties>
        <property name="Type" value="Dirt" />
      </properties>
    </tile>
    <tile id="792">
      <animation>
        <frame tileid="792" duration="1000" />
        <frame tileid="792" duration="1000" />
        <frame tileid="785" duration="1000" />
      </animation>
    </tile>
    <tile id="793">
      <animation>
        <frame tileid="793" duration="1000" />
        <frame tileid="793" duration="1000" />
        <frame tileid="786" duration="1000" />
      </animation>
    </tile>
    <tile id="800">
      <animation>
        <frame tileid="800" duration="250" />
        <frame tileid="800" duration="250" />
        <frame tileid="800" duration="250" />
        <frame tileid="800" duration="250" />
        <frame tileid="800" duration="250" />
        <frame tileid="800" duration="250" />
        <frame tileid="800" duration="250" />
        <frame tileid="800" duration="250" />
        <frame tileid="800" duration="250" />
        <frame tileid="800" duration="250" />
        <frame tileid="800" duration="250" />
        <frame tileid="800" duration="250" />
        <frame tileid="800" duration="250" />
        <frame tileid="800" duration="250" />
        <frame tileid="800" duration="250" />
        <frame tileid="800" duration="250" />
        <frame tileid="800" duration="250" />
        <frame tileid="800" duration="250" />
        <frame tileid="800" duration="250" />
        <frame tileid="800" duration="250" />
        <frame tileid="801" duration="250" />
        <frame tileid="802" duration="250" />
        <frame tileid="802" duration="250" />
        <frame tileid="802" duration="250" />
        <frame tileid="801" duration="250" />
      </animation>
    </tile>
    <tile id="808">
      <animation>
        <frame tileid="808" duration="250" />
        <frame tileid="808" duration="250" />
        <frame tileid="807" duration="250" />
        <frame tileid="807" duration="250" />
        <frame tileid="808" duration="250" />
        <frame tileid="808" duration="250" />
        <frame tileid="807" duration="250" />
        <frame tileid="807" duration="250" />
        <frame tileid="808" duration="250" />
        <frame tileid="808" duration="250" />
        <frame tileid="809" duration="250" />
        <frame tileid="810" duration="250" />
        <frame tileid="809" duration="250" />
        <frame tileid="808" duration="250" />
        <frame tileid="809" duration="250" />
        <frame tileid="810" duration="250" />
        <frame tileid="809" duration="250" />
      </animation>
    </tile>
    <tile id="819">
      <properties>
        <property name="Type" value="Dirt" />
      </properties>
    </tile>
    <tile id="820">
      <properties>
        <property name="Type" value="Dirt" />
      </properties>
    </tile>
    <tile id="821">
      <properties>
        <property name="Type" value="Dirt" />
      </properties>
    </tile>
    <tile id="851">
      <properties>
        <property name="Type" value="Stone" />
      </properties>
    </tile>
    <tile id="852">
      <properties>
        <property name="Type" value="Stone" />
      </properties>
    </tile>
    <tile id="853">
      <properties>
        <property name="Type" value="Stone" />
      </properties>
    </tile>
    <tile id="854">
      <properties>
        <property name="Type" value="Stone" />
      </properties>
    </tile>
    <tile id="855">
      <properties>
        <property name="Type" value="Stone" />
      </properties>
    </tile>
    <tile id="856">
      <properties>
        <property name="Type" value="Stone" />
      </properties>
    </tile>
    <tile id="857">
      <properties>
        <property name="Type" value="Stone" />
      </properties>
    </tile>
    <tile id="858">
      <properties>
        <property name="Type" value="Stone" />
      </properties>
    </tile>
    <tile id="859">
      <properties>
        <property name="Type" value="Stone" />
      </properties>
    </tile>
    <tile id="860">
      <properties>
        <property name="Type" value="Stone" />
      </properties>
    </tile>
    <tile id="861">
      <properties>
        <property name="Type" value="Stone" />
      </properties>
    </tile>
    <tile id="862">
      <properties>
        <property name="Type" value="Stone" />
      </properties>
    </tile>
    <tile id="863">
      <properties>
        <property name="Type" value="Stone" />
      </properties>
    </tile>
    <tile id="975">
      <animation>
        <frame tileid="975" duration="250" />
        <frame tileid="884" duration="250" />
        <frame tileid="916" duration="250" />
        <frame tileid="948" duration="250" />
      </animation>
    </tile>
    <tile id="976">
      <animation>
        <frame tileid="976" duration="250" />
        <frame tileid="885" duration="250" />
        <frame tileid="917" duration="250" />
        <frame tileid="949" duration="250" />
      </animation>
    </tile>
    <tile id="977">
      <animation>
        <frame tileid="977" duration="250" />
        <frame tileid="886" duration="250" />
        <frame tileid="918" duration="250" />
        <frame tileid="950" duration="250" />
      </animation>
    </tile>
    <tile id="1012">
      <properties>
        <property name="Type" value="Stone" />
      </properties>
    </tile>
    <tile id="1026">
      <properties>
        <property name="Type" value="Dirt" />
      </properties>
    </tile>
    <tile id="1027">
      <properties>
        <property name="Type" value="Stone" />
      </properties>
    </tile>
    <tile id="1028">
      <properties>
        <property name="Type" value="Stone" />
      </properties>
    </tile>
    <tile id="1029">
      <properties>
        <property name="Type" value="Stone" />
      </properties>
    </tile>
    <tile id="1030">
      <properties>
        <property name="Type" value="Dirt" />
      </properties>
    </tile>
    <tile id="1040">
      <animation>
        <frame tileid="1040" duration="100" />
        <frame tileid="1040" duration="100" />
        <frame tileid="1040" duration="100" />
        <frame tileid="1039" duration="100" />
        <frame tileid="1038" duration="100" />
        <frame tileid="1038" duration="100" />
        <frame tileid="1038" duration="100" />
        <frame tileid="1039" duration="100" />
      </animation>
    </tile>
    <tile id="1041">
      <animation>
        <frame tileid="1041" duration="500" />
        <frame tileid="1041" duration="500" />
        <frame tileid="1041" duration="500" />
        <frame tileid="1041" duration="500" />
        <frame tileid="1041" duration="500" />
        <frame tileid="1041" duration="500" />
        <frame tileid="1042" duration="500" />
        <frame tileid="1042" duration="500" />
        <frame tileid="1041" duration="500" />
        <frame tileid="1041" duration="500" />
        <frame tileid="1041" duration="500" />
        <frame tileid="1041" duration="500" />
        <frame tileid="1041" duration="500" />
        <frame tileid="1043" duration="500" />
        <frame tileid="1043" duration="500" />
        <frame tileid="1041" duration="500" />
        <frame tileid="1041" duration="500" />
        <frame tileid="1041" duration="500" />
        <frame tileid="1041" duration="500" />
        <frame tileid="1041" duration="500" />
        <frame tileid="1041" duration="500" />
        <frame tileid="1041" duration="500" />
        <frame tileid="1042" duration="500" />
        <frame tileid="1042" duration="500" />
        <frame tileid="1042" duration="500" />
        <frame tileid="1041" duration="500" />
        <frame tileid="1041" duration="500" />
        <frame tileid="1041" duration="500" />
        <frame tileid="1041" duration="500" />
        <frame tileid="1041" duration="500" />
        <frame tileid="1041" duration="500" />
        <frame tileid="1041" duration="500" />
        <frame tileid="1043" duration="500" />
        <frame tileid="1043" duration="500" />
        <frame tileid="1041" duration="500" />
        <frame tileid="1041" duration="500" />
        <frame tileid="1041" duration="500" />
      </animation>
    </tile>
    <tile id="1058">
      <properties>
        <property name="Type" value="Stone" />
      </properties>
    </tile>
    <tile id="1059">
      <properties>
        <property name="Type" value="Stone" />
      </properties>
    </tile>
    <tile id="1060">
      <properties>
        <property name="Type" value="Stone" />
      </properties>
    </tile>
    <tile id="1061">
      <properties>
        <property name="Type" value="dirt" />
      </properties>
    </tile>
    <tile id="1062">
      <properties>
        <property name="Type" value="Dirt" />
      </properties>
    </tile>
    <tile id="1072">
      <animation>
        <frame tileid="1072" duration="100" />
        <frame tileid="1072" duration="100" />
        <frame tileid="1072" duration="100" />
        <frame tileid="1071" duration="100" />
        <frame tileid="1070" duration="100" />
        <frame tileid="1070" duration="100" />
        <frame tileid="1070" duration="100" />
        <frame tileid="1071" duration="100" />
      </animation>
    </tile>
    <tile id="1076">
      <properties>
        <property name="Type" value="Stone" />
      </properties>
    </tile>
    <tile id="1077">
      <properties>
        <property name="Type" value="Stone" />
      </properties>
    </tile>
    <tile id="1078">
      <properties>
        <property name="Type" value="Stone" />
      </properties>
    </tile>
    <tile id="1079">
      <properties>
        <property name="Type" value="Stone" />
      </properties>
    </tile>
    <tile id="1080">
      <properties>
        <property name="Type" value="Stone" />
      </properties>
    </tile>
    <tile id="1081">
      <properties>
        <property name="Type" value="Stone" />
      </properties>
    </tile>
    <tile id="1082">
      <properties>
        <property name="Type" value="Stone" />
      </properties>
    </tile>
    <tile id="1083">
      <properties>
        <property name="Type" value="Stone" />
      </properties>
    </tile>
  </tileset>
  <tileset firstgid="1122" name="desert-festival-text" tilewidth="16" tileheight="16" tilecount="64" columns="8">
    <image source="desert_festival_tilesheet_text" width="128" height="128" />
  </tileset>
  <tileset firstgid="1186" name="desert-new" tilewidth="16" tileheight="16" tilecount="368" columns="16">
    <image source="DesertTiles" width="256" height="368" />
    <tile id="0">
      <properties>
        <property name="Diggable" value="T" />
        <property name="Type" value="Dirt" />
      </properties>
    </tile>
    <tile id="1">
      <properties>
        <property name="Diggable" value="T" />
      </properties>
    </tile>
    <tile id="2">
      <properties>
        <property name="Diggable" value="T" />
      </properties>
    </tile>
    <tile id="16">
      <properties>
        <property name="Diggable" value="T" />
      </properties>
    </tile>
    <tile id="17">
      <properties>
        <property name="Diggable" value="T" />
        <property name="Type" value="Dirt" />
      </properties>
    </tile>
    <tile id="18">
      <properties>
        <property name="Diggable" value="T" />
      </properties>
    </tile>
    <tile id="32">
      <properties>
        <property name="Diggable" value="T" />
      </properties>
    </tile>
    <tile id="33">
      <properties>
        <property name="Diggable" value="T" />
      </properties>
    </tile>
    <tile id="34">
      <properties>
        <property name="Diggable" value="T" />
      </properties>
    </tile>
    <tile id="64">
      <properties>
        <property name="Type" value="Dirt" />
      </properties>
    </tile>
    <tile id="65">
      <properties>
        <property name="Diggable" value="T" />
        <property name="Spawnable" value="T" />
        <property name="Type" value="Dirt" />
      </properties>
    </tile>
    <tile id="66">
      <properties>
        <property name="Type" value="Dirt" />
      </properties>
    </tile>
    <tile id="67">
      <properties>
        <property name="Diggable" value="T" />
      </properties>
    </tile>
    <tile id="68">
      <properties>
        <property name="Diggable" value="T" />
        <property name="Spawnable" value="T" />
        <property name="Type" value="Dirt" />
      </properties>
    </tile>
    <tile id="91">
      <properties>
        <property name="Water" value="T" />
      </properties>
    </tile>
    <tile id="92">
      <properties>
        <property name="Water" value="T" />
      </properties>
    </tile>
    <tile id="93">
      <properties>
        <property name="Water" value="T" />
      </properties>
    </tile>
    <tile id="94">
      <properties>
        <property name="Water" value="T" />
      </properties>
    </tile>
    <tile id="95">
      <properties>
        <property name="Water" value="T" />
      </properties>
    </tile>
    <tile id="107">
      <properties>
        <property name="Water" value="T" />
      </properties>
    </tile>
    <tile id="108">
      <properties>
        <property name="Water" value="T" />
      </properties>
    </tile>
    <tile id="109">
      <properties>
        <property name="Water" value="T" />
      </properties>
    </tile>
    <tile id="110">
      <properties>
        <property name="Water" value="T" />
      </properties>
    </tile>
    <tile id="111">
      <properties>
        <property name="Water" value="T" />
      </properties>
    </tile>
    <tile id="123">
      <properties>
        <property name="Water" value="T" />
      </properties>
    </tile>
    <tile id="124">
      <properties>
        <property name="Water" value="T" />
      </properties>
    </tile>
    <tile id="125">
      <properties>
        <property name="Water" value="T" />
      </properties>
    </tile>
    <tile id="126">
      <properties>
        <property name="Water" value="T" />
      </properties>
      <animation>
        <frame tileid="126" duration="1000" />
        <frame tileid="127" duration="1000" />
      </animation>
    </tile>
    <tile id="127">
      <properties>
        <property name="Water" value="T" />
      </properties>
    </tile>
    <tile id="139">
      <properties>
        <property name="Water" value="T" />
      </properties>
    </tile>
    <tile id="140">
      <properties>
        <property name="Water" value="T" />
      </properties>
    </tile>
    <tile id="141">
      <properties>
        <property name="Water" value="T" />
      </properties>
    </tile>
    <tile id="143">
      <properties>
        <property name="Type" value="Stone" />
      </properties>
    </tile>
    <tile id="155">
      <properties>
        <property name="Water" value="T" />
      </properties>
    </tile>
    <tile id="156">
      <properties>
        <property name="Water" value="T" />
      </properties>
    </tile>
    <tile id="171">
      <properties>
        <property name="Water" value="T" />
      </properties>
    </tile>
    <tile id="172">
      <properties>
        <property name="Water" value="T" />
      </properties>
    </tile>
    <tile id="174">
      <properties>
        <property name="Type" value="Stone" />
      </properties>
    </tile>
    <tile id="190">
      <properties>
        <property name="Type" value="Stone" />
      </properties>
    </tile>
    <tile id="206">
      <properties>
        <property name="Type" value="Stone" />
      </properties>
    </tile>
  </tileset>
  <tileset firstgid="1554" name="paths" tilewidth="16" tileheight="16" tilecount="64" columns="4">
    <image source="paths" width="64" height="256" />
  </tileset>
  <tileset firstgid="1618" name="PolyCarts" tilewidth="16" tileheight="16" tilecount="32" columns="8">
    <image source="spring_PolyCarts" width="128" height="64" />
  </tileset>
  <layer id="1" name="Back" width="3" height="7">
    <data encoding="csv">
      1222,1282,1203, 1251,1284,1203, 240,247,1203, 1251,1203,1203, 1203,1203,1203, 1203,1203,1203, 1203,1203,1203
    </data>
  </layer>
  <layer id="2" name="Back2" width="3" height="7">
    <data encoding="csv">
      468,566,0, 0,0,0, 1323,1322,1324, 1339,1629,1340, 1355,1629,1290, 0,1630,0, 0,0,0
    </data>
  </layer>
  <layer id="3" name="Buildings" width="3" height="7">
    <data encoding="csv">
      0,0,1292, 1196,1197,1308, 1631,1632,1633, 1639,1640,1641, 1647,1648,1649, 1340,1642,76, 1356,77,78
    </data>
  </layer>
  <layer id="4" name="Buildings2" width="3" height="7">
    <data encoding="csv">
      0,0,0, 0,0,0, 0,0,0, 0,0,0, 0,0,0, 0,0,0, 0,0,0
    </data>
  </layer>
  <layer id="5" name="Front" width="3" height="7">
    <data encoding="csv">
      0,0,0, 0,0,0, 1292,0,0, 1308,0,0, 1324,1634,44, 0,45,46, 0,0,0
    </data>
  </layer>
  <layer id="6" name="Front2" width="3" height="7">
    <data encoding="csv">
      0,0,0, 0,0,0, 0,0,0, 0,0,0, 0,0,0, 0,0,0, 0,0,0
    </data>
  </layer>
  <layer id="7" name="Paths" width="3" height="7">
    <data encoding="csv">
      0,0,0, 0,0,0, 0,0,0, 0,0,0, 0,0,0, 0,0,0, 0,0,0
    </data>
  </layer>
  <layer id="8" name="AlwaysFront" width="3" height="7">
    <data encoding="csv">
      0,0,0, 0,0,0, 0,0,0, 0,0,0, 0,0,0, 0,0,0, 0,0,50
    </data>
  </layer>
  <layer id="9" name="AlwaysFront2" width="3" height="7">
    <data encoding="csv">
      0,0,0, 0,0,0, 0,0,0, 0,0,0, 0,0,0, 0,0,0, 0,0,0
    </data>
  </layer>
</map>