<?xml version="1.0" encoding="UTF-8"?>
<map version="1.10" tiledversion="1.11.2" orientation="orthogonal" renderorder="right-down" width="54" height="5" tilewidth="16" tileheight="16" infinite="0" nextlayerid="28" nextobjectid="94">
 <properties>
  <property name="DayTiles" value="AlwaysFront 38 14 907 AlwaysFront 27 14 907 AlwaysFront 30 20 907 AlwaysFront 45 20 907"/>
  <property name="Fall_Objects" value="T"/>
  <property name="Light" value="38 14 4 27 14 4 30 20 4 45 20 4"/>
  <property name="LocationContext" value="Lemurkat_EastScarp"/>
  <property name="NPCWarp" value="30 19 EastScarp_TNPCWaitingWarpRoom 9 13"/>
  <property name="NightTiles" value="AlwaysFront 38 14 908 AlwaysFront 27 14 908 AlwaysFront 30 20 908 AlwaysFront 45 20 908"/>
  <property name="Outdoors" value="T"/>
  <property name="Spring_Objects" value="T"/>
  <property name="Summer_Objects" value="T"/>
  <property name="ViewportClamp" value="9 0 56 30"/>
  <property name="Warp" value="12 20 Town 119 73 12 21 Town 119 72 12 22 Town 119 73 -1 23 Town 119 73 55 20 EastScarp_Village 0 71 55 21 EastScarp_Village 0 72 55 22 EastScarp_Village 0 73 60 23 EastScarp_Village 0 74 48 40 EastScarp_LoresCove 28 0 49 40 EastScarp_LoresCove 28 0"/>
  <property name="Winter_Objects" value="T"/>
 </properties>
 <tileset firstgid="1" name="outdoors" tilewidth="16" tileheight="16" tilecount="1975" columns="25">
  <image source="spring_outdoorsTileSheet.png" width="400" height="1264"/>
  <tile id="150">
   <properties>
    <property name="Spawnable" value="t"/>
    <property name="Type" value="Grass"/>
   </properties>
  </tile>
  <tile id="151">
   <properties>
    <property name="Type" value="Grass"/>
   </properties>
   <animation>
    <frame tileid="151" duration="1000"/>
    <frame tileid="152" duration="1000"/>
   </animation>
  </tile>
  <tile id="152">
   <animation>
    <frame tileid="152" duration="1000"/>
    <frame tileid="151" duration="1000"/>
   </animation>
  </tile>
  <tile id="156">
   <properties>
    <property name="Spawnable" value="T"/>
    <property name="Type" value="Grass"/>
   </properties>
  </tile>
  <tile id="175">
   <properties>
    <property name="Spawnable" value="t"/>
    <property name="Type" value="Grass"/>
   </properties>
  </tile>
  <tile id="176">
   <properties>
    <property name="Diggable" value="t"/>
    <property name="Type" value="Dirt"/>
   </properties>
  </tile>
  <tile id="177">
   <properties>
    <property name="Type" value="Dirt"/>
   </properties>
  </tile>
  <tile id="178">
   <properties>
    <property name="Type" value="Dirt"/>
   </properties>
  </tile>
  <tile id="179">
   <properties>
    <property name="Type" value="Grass"/>
   </properties>
  </tile>
  <tile id="180">
   <properties>
    <property name="Spawnable" value="t"/>
    <property name="Type" value="Grass"/>
   </properties>
  </tile>
  <tile id="181">
   <properties>
    <property name="Type" value="Dirt"/>
   </properties>
  </tile>
  <tile id="182">
   <properties>
    <property name="Type" value="Dirt"/>
   </properties>
  </tile>
  <tile id="183">
   <animation>
    <frame tileid="183" duration="1000"/>
    <frame tileid="1182" duration="1000"/>
   </animation>
  </tile>
  <tile id="184">
   <animation>
    <frame tileid="184" duration="1000"/>
    <frame tileid="1183" duration="1000"/>
   </animation>
  </tile>
  <tile id="185">
   <animation>
    <frame tileid="185" duration="1000"/>
    <frame tileid="1184" duration="1000"/>
   </animation>
  </tile>
  <tile id="200">
   <properties>
    <property name="Spawnable" value="t"/>
    <property name="Type" value="Grass"/>
   </properties>
  </tile>
  <tile id="202">
   <properties>
    <property name="Type" value="Dirt"/>
   </properties>
  </tile>
  <tile id="203">
   <properties>
    <property name="Type" value="Grass"/>
   </properties>
  </tile>
  <tile id="204">
   <properties>
    <property name="Type" value="Grass"/>
   </properties>
  </tile>
  <tile id="205">
   <properties>
    <property name="Type" value="Grass"/>
   </properties>
  </tile>
  <tile id="206">
   <properties>
    <property name="Diggable" value="t"/>
    <property name="Type" value="Dirt"/>
   </properties>
  </tile>
  <tile id="207">
   <properties>
    <property name="Diggable" value="t"/>
    <property name="Type" value="Dirt"/>
   </properties>
  </tile>
  <tile id="208">
   <animation>
    <frame tileid="208" duration="1000"/>
    <frame tileid="1207" duration="1000"/>
   </animation>
  </tile>
  <tile id="209">
   <properties>
    <property name="Water" value="t"/>
   </properties>
   <animation>
    <frame tileid="209" duration="1000"/>
    <frame tileid="1208" duration="1000"/>
   </animation>
  </tile>
  <tile id="225">
   <properties>
    <property name="Type" value="Dirt"/>
   </properties>
  </tile>
  <tile id="226">
   <properties>
    <property name="Diggable" value="t"/>
    <property name="Type" value="Dirt"/>
   </properties>
  </tile>
  <tile id="227">
   <properties>
    <property name="Diggable" value="t"/>
    <property name="Type" value="Dirt"/>
   </properties>
  </tile>
  <tile id="228">
   <properties>
    <property name="Type" value="Dirt"/>
   </properties>
  </tile>
  <tile id="229">
   <properties>
    <property name="Type" value="Grass"/>
   </properties>
  </tile>
  <tile id="230">
   <properties>
    <property name="Type" value="Grass"/>
   </properties>
  </tile>
  <tile id="231">
   <properties>
    <property name="Diggable" value="t"/>
    <property name="Type" value="Dirt"/>
   </properties>
  </tile>
  <tile id="233">
   <animation>
    <frame tileid="233" duration="1000"/>
    <frame tileid="1232" duration="1000"/>
   </animation>
  </tile>
  <tile id="234">
   <properties>
    <property name="Water" value="t"/>
   </properties>
  </tile>
  <tile id="235">
   <animation>
    <frame tileid="235" duration="1000"/>
    <frame tileid="1290" duration="1000"/>
   </animation>
  </tile>
  <tile id="237">
   <animation>
    <frame tileid="237" duration="1000"/>
    <frame tileid="1291" duration="1000"/>
   </animation>
  </tile>
  <tile id="238">
   <animation>
    <frame tileid="238" duration="1000"/>
    <frame tileid="1292" duration="1000"/>
   </animation>
  </tile>
  <tile id="250">
   <properties>
    <property name="Type" value="Grass"/>
   </properties>
  </tile>
  <tile id="251">
   <properties>
    <property name="Type" value="Dirt"/>
   </properties>
  </tile>
  <tile id="252">
   <properties>
    <property name="Diggable" value="t"/>
    <property name="Type" value="Dirt"/>
   </properties>
  </tile>
  <tile id="253">
   <properties>
    <property name="Type" value="Grass"/>
   </properties>
  </tile>
  <tile id="254">
   <properties>
    <property name="Type" value="Grass"/>
   </properties>
  </tile>
  <tile id="255">
   <properties>
    <property name="Type" value="Grass"/>
   </properties>
  </tile>
  <tile id="256">
   <properties>
    <property name="Type" value="Grass"/>
   </properties>
  </tile>
  <tile id="260">
   <animation>
    <frame tileid="260" duration="1000"/>
    <frame tileid="1315" duration="1000"/>
   </animation>
  </tile>
  <tile id="265">
   <properties>
    <property name="Type" value="Dirt"/>
   </properties>
  </tile>
  <tile id="276">
   <properties>
    <property name="Type" value="Grass"/>
   </properties>
  </tile>
  <tile id="277">
   <properties>
    <property name="Spawnable" value="t"/>
    <property name="Type" value="Grass"/>
   </properties>
  </tile>
  <tile id="278">
   <properties>
    <property name="Type" value="Grass"/>
   </properties>
  </tile>
  <tile id="279">
   <properties>
    <property name="Type" value="Grass"/>
   </properties>
  </tile>
  <tile id="283">
   <animation>
    <frame tileid="283" duration="1000"/>
    <frame tileid="1312" duration="1000"/>
   </animation>
  </tile>
  <tile id="284">
   <animation>
    <frame tileid="284" duration="1000"/>
    <frame tileid="1313" duration="1000"/>
   </animation>
  </tile>
  <tile id="285">
   <properties>
    <property name="Water" value="t"/>
   </properties>
  </tile>
  <tile id="301">
   <properties>
    <property name="Type" value="Grass"/>
   </properties>
  </tile>
  <tile id="302">
   <properties>
    <property name="Spawnable" value="t"/>
    <property name="Type" value="Grass"/>
   </properties>
  </tile>
  <tile id="303">
   <properties>
    <property name="Type" value="Grass"/>
   </properties>
  </tile>
  <tile id="304">
   <properties>
    <property name="Type" value="Grass"/>
   </properties>
  </tile>
  <tile id="305">
   <properties>
    <property name="Type" value="Grass"/>
   </properties>
  </tile>
  <tile id="308">
   <properties>
    <property name="Water" value="t"/>
   </properties>
   <animation>
    <frame tileid="308" duration="1000"/>
    <frame tileid="1316" duration="1000"/>
   </animation>
  </tile>
  <tile id="309">
   <properties>
    <property name="Water" value="t"/>
   </properties>
  </tile>
  <tile id="310">
   <properties>
    <property name="Water" value="t"/>
   </properties>
  </tile>
  <tile id="312">
   <properties>
    <property name="Type" value="Wood"/>
   </properties>
  </tile>
  <tile id="313">
   <properties>
    <property name="Type" value="Wood"/>
   </properties>
  </tile>
  <tile id="314">
   <properties>
    <property name="Type" value="Wood"/>
   </properties>
  </tile>
  <tile id="325">
   <properties>
    <property name="Type" value="Grass"/>
   </properties>
  </tile>
  <tile id="326">
   <properties>
    <property name="Type" value="Grass"/>
   </properties>
  </tile>
  <tile id="327">
   <properties>
    <property name="Type" value="Grass"/>
   </properties>
  </tile>
  <tile id="328">
   <properties>
    <property name="Type" value="Grass"/>
   </properties>
  </tile>
  <tile id="329">
   <properties>
    <property name="Type" value="Grass"/>
   </properties>
  </tile>
  <tile id="333">
   <properties>
    <property name="Water" value="t"/>
   </properties>
  </tile>
  <tile id="334">
   <properties>
    <property name="Water" value="t"/>
   </properties>
  </tile>
  <tile id="335">
   <properties>
    <property name="Water" value="t"/>
   </properties>
  </tile>
  <tile id="336">
   <properties>
    <property name="Water" value="t"/>
   </properties>
  </tile>
  <tile id="337">
   <properties>
    <property name="Type" value="Wood"/>
   </properties>
  </tile>
  <tile id="338">
   <properties>
    <property name="Type" value="Wood"/>
   </properties>
  </tile>
  <tile id="339">
   <properties>
    <property name="Type" value="Wood"/>
   </properties>
  </tile>
  <tile id="350">
   <properties>
    <property name="Type" value="Grass"/>
   </properties>
  </tile>
  <tile id="351">
   <properties>
    <property name="Spawnable" value="t"/>
    <property name="Type" value="Grass"/>
   </properties>
  </tile>
  <tile id="352">
   <properties>
    <property name="Type" value="Grass"/>
   </properties>
  </tile>
  <tile id="353">
   <properties>
    <property name="Type" value="Grass"/>
   </properties>
  </tile>
  <tile id="354">
   <properties>
    <property name="Type" value="Grass"/>
   </properties>
  </tile>
  <tile id="355">
   <properties>
    <property name="Type" value="Grass"/>
   </properties>
  </tile>
  <tile id="356">
   <properties>
    <property name="Type" value="Grass"/>
   </properties>
  </tile>
  <tile id="375">
   <properties>
    <property name="Type" value="Grass"/>
   </properties>
  </tile>
  <tile id="376">
   <properties>
    <property name="Type" value="Grass"/>
   </properties>
  </tile>
  <tile id="377">
   <properties>
    <property name="Type" value="Grass"/>
   </properties>
  </tile>
  <tile id="378">
   <properties>
    <property name="Type" value="Grass"/>
   </properties>
  </tile>
  <tile id="379">
   <properties>
    <property name="Type" value="Grass"/>
   </properties>
  </tile>
  <tile id="380">
   <properties>
    <property name="Spawnable" value="t"/>
    <property name="Type" value="Grass"/>
   </properties>
  </tile>
  <tile id="381">
   <properties>
    <property name="Type" value="Grass"/>
   </properties>
  </tile>
  <tile id="400">
   <properties>
    <property name="Type" value="Grass"/>
   </properties>
  </tile>
  <tile id="401">
   <properties>
    <property name="Type" value="Grass"/>
   </properties>
  </tile>
  <tile id="402">
   <properties>
    <property name="Spawnable" value="t"/>
    <property name="Type" value="Grass"/>
   </properties>
  </tile>
  <tile id="403">
   <properties>
    <property name="Spawnable" value="t"/>
    <property name="Type" value="Grass"/>
   </properties>
  </tile>
  <tile id="404">
   <properties>
    <property name="Type" value="Grass"/>
   </properties>
  </tile>
  <tile id="405">
   <properties>
    <property name="Type" value="Grass"/>
   </properties>
  </tile>
  <tile id="406">
   <properties>
    <property name="Type" value="Grass"/>
   </properties>
  </tile>
  <tile id="512">
   <properties>
    <property name="Type" value="Dirt"/>
   </properties>
  </tile>
  <tile id="534">
   <properties>
    <property name="Type" value="Dirt"/>
   </properties>
  </tile>
  <tile id="536">
   <properties>
    <property name="Type" value="Dirt"/>
   </properties>
  </tile>
  <tile id="537">
   <properties>
    <property name="Type" value="Dirt"/>
   </properties>
  </tile>
  <tile id="538">
   <properties>
    <property name="Type" value="Dirt"/>
   </properties>
  </tile>
  <tile id="558">
   <properties>
    <property name="Diggable" value="t"/>
    <property name="Type" value="Dirt"/>
   </properties>
  </tile>
  <tile id="560">
   <properties>
    <property name="Diggable" value="t"/>
    <property name="Type" value="Dirt"/>
   </properties>
  </tile>
  <tile id="561">
   <properties>
    <property name="Type" value="Dirt"/>
   </properties>
  </tile>
  <tile id="562">
   <properties>
    <property name="Type" value="Dirt"/>
   </properties>
  </tile>
  <tile id="563">
   <properties>
    <property name="Type" value="Dirt"/>
   </properties>
  </tile>
  <tile id="564">
   <properties>
    <property name="Diggable" value="t"/>
    <property name="Type" value="Dirt"/>
   </properties>
  </tile>
  <tile id="565">
   <properties>
    <property name="Type" value="Dirt"/>
   </properties>
  </tile>
  <tile id="566">
   <properties>
    <property name="Type" value="Dirt"/>
   </properties>
  </tile>
  <tile id="567">
   <properties>
    <property name="Spawnable" value="t"/>
    <property name="Type" value="Grass"/>
   </properties>
  </tile>
  <tile id="568">
   <properties>
    <property name="Type" value="Grass"/>
   </properties>
  </tile>
  <tile id="569">
   <properties>
    <property name="Spawnable" value="t"/>
    <property name="Type" value="Grass"/>
   </properties>
  </tile>
  <tile id="570">
   <properties>
    <property name="Type" value="Grass"/>
   </properties>
  </tile>
  <tile id="583">
   <properties>
    <property name="Diggable" value="t"/>
    <property name="Type" value="Dirt"/>
   </properties>
  </tile>
  <tile id="585">
   <properties>
    <property name="Diggable" value="t"/>
    <property name="Type" value="Dirt"/>
   </properties>
  </tile>
  <tile id="586">
   <properties>
    <property name="Type" value="Dirt"/>
   </properties>
  </tile>
  <tile id="587">
   <properties>
    <property name="Diggable" value="t"/>
    <property name="Type" value="Dirt"/>
   </properties>
  </tile>
  <tile id="588">
   <properties>
    <property name="Type" value="Dirt"/>
   </properties>
  </tile>
  <tile id="589">
   <properties>
    <property name="Diggable" value="t"/>
    <property name="Type" value="Dirt"/>
   </properties>
  </tile>
  <tile id="590">
   <properties>
    <property name="Type" value="Dirt"/>
   </properties>
  </tile>
  <tile id="591">
   <properties>
    <property name="Type" value="Dirt"/>
   </properties>
  </tile>
  <tile id="592">
   <properties>
    <property name="Type" value="Grass"/>
   </properties>
  </tile>
  <tile id="593">
   <properties>
    <property name="Type" value="Grass"/>
   </properties>
  </tile>
  <tile id="594">
   <properties>
    <property name="Type" value="Grass"/>
   </properties>
  </tile>
  <tile id="595">
   <properties>
    <property name="Type" value="Grass"/>
   </properties>
  </tile>
  <tile id="596">
   <properties>
    <property name="Type" value="Dirt"/>
   </properties>
  </tile>
  <tile id="597">
   <properties>
    <property name="Type" value="Dirt"/>
   </properties>
  </tile>
  <tile id="598">
   <properties>
    <property name="Type" value="Stone"/>
   </properties>
  </tile>
  <tile id="599">
   <properties>
    <property name="Type" value="Stone"/>
   </properties>
  </tile>
  <tile id="606">
   <properties>
    <property name="Diggable" value="t"/>
    <property name="Type" value="Dirt"/>
   </properties>
  </tile>
  <tile id="607">
   <properties>
    <property name="Diggable" value="t"/>
    <property name="Type" value="Dirt"/>
   </properties>
  </tile>
  <tile id="608">
   <properties>
    <property name="Diggable" value="t"/>
    <property name="Type" value="Dirt"/>
   </properties>
  </tile>
  <tile id="610">
   <properties>
    <property name="Diggable" value="t"/>
    <property name="Type" value="Dirt"/>
   </properties>
  </tile>
  <tile id="611">
   <properties>
    <property name="Type" value="Dirt"/>
   </properties>
  </tile>
  <tile id="612">
   <properties>
    <property name="Type" value="Dirt"/>
   </properties>
  </tile>
  <tile id="613">
   <properties>
    <property name="Type" value="Dirt"/>
   </properties>
  </tile>
  <tile id="614">
   <properties>
    <property name="Diggable" value="t"/>
    <property name="Type" value="Dirt"/>
   </properties>
  </tile>
  <tile id="615">
   <properties>
    <property name="Type" value="Dirt"/>
   </properties>
  </tile>
  <tile id="616">
   <properties>
    <property name="Type" value="Dirt"/>
   </properties>
  </tile>
  <tile id="617">
   <properties>
    <property name="Type" value="Dirt"/>
   </properties>
  </tile>
  <tile id="619">
   <properties>
    <property name="Type" value="Grass"/>
   </properties>
  </tile>
  <tile id="620">
   <properties>
    <property name="Type" value="Dirt"/>
   </properties>
  </tile>
  <tile id="621">
   <properties>
    <property name="Type" value="Dirt"/>
   </properties>
  </tile>
  <tile id="622">
   <properties>
    <property name="Type" value="Dirt"/>
   </properties>
  </tile>
  <tile id="623">
   <properties>
    <property name="Type" value="Stone"/>
   </properties>
  </tile>
  <tile id="628">
   <properties>
    <property name="Water" value="t"/>
   </properties>
  </tile>
  <tile id="629">
   <properties>
    <property name="Water" value="t"/>
   </properties>
  </tile>
  <tile id="630">
   <properties>
    <property name="Diggable" value="t"/>
    <property name="Type" value="Dirt"/>
   </properties>
  </tile>
  <tile id="631">
   <properties>
    <property name="Type" value="Dirt"/>
   </properties>
  </tile>
  <tile id="632">
   <properties>
    <property name="Diggable" value="t"/>
    <property name="Type" value="Dirt"/>
   </properties>
  </tile>
  <tile id="633">
   <properties>
    <property name="Type" value="Grass"/>
   </properties>
  </tile>
  <tile id="634">
   <properties>
    <property name="Spawnable" value="t"/>
    <property name="Type" value="Grass"/>
   </properties>
  </tile>
  <tile id="635">
   <properties>
    <property name="Type" value="Dirt"/>
   </properties>
  </tile>
  <tile id="636">
   <properties>
    <property name="Type" value="Dirt"/>
   </properties>
  </tile>
  <tile id="653">
   <properties>
    <property name="Water" value="t"/>
   </properties>
  </tile>
  <tile id="654">
   <properties>
    <property name="Type" value="Grass"/>
   </properties>
  </tile>
  <tile id="655">
   <properties>
    <property name="Type" value="Dirt"/>
   </properties>
  </tile>
  <tile id="656">
   <properties>
    <property name="Type" value="Dirt"/>
   </properties>
  </tile>
  <tile id="657">
   <properties>
    <property name="Type" value="Grass"/>
   </properties>
  </tile>
  <tile id="658">
   <properties>
    <property name="Type" value="Grass"/>
   </properties>
  </tile>
  <tile id="659">
   <properties>
    <property name="Type" value="Grass"/>
   </properties>
  </tile>
  <tile id="679">
   <properties>
    <property name="Type" value="Dirt"/>
   </properties>
  </tile>
  <tile id="680">
   <properties>
    <property name="Diggable" value="t"/>
    <property name="Type" value="Dirt"/>
   </properties>
  </tile>
  <tile id="681">
   <properties>
    <property name="Diggable" value="t"/>
    <property name="Type" value="Dirt"/>
   </properties>
  </tile>
  <tile id="682">
   <properties>
    <property name="Type" value="Dirt"/>
   </properties>
  </tile>
  <tile id="683">
   <properties>
    <property name="Type" value="Grass"/>
   </properties>
  </tile>
  <tile id="684">
   <properties>
    <property name="Type" value="Grass"/>
   </properties>
  </tile>
  <tile id="685">
   <properties>
    <property name="Diggable" value="t"/>
    <property name="Type" value="Dirt"/>
   </properties>
  </tile>
  <tile id="704">
   <properties>
    <property name="Type" value="Grass"/>
   </properties>
  </tile>
  <tile id="705">
   <properties>
    <property name="Type" value="Dirt"/>
   </properties>
  </tile>
  <tile id="706">
   <properties>
    <property name="Diggable" value="t"/>
    <property name="Type" value="Dirt"/>
   </properties>
  </tile>
  <tile id="707">
   <properties>
    <property name="Type" value="Grass"/>
   </properties>
  </tile>
  <tile id="734">
   <properties>
    <property name="Water" value="t"/>
   </properties>
  </tile>
  <tile id="759">
   <properties>
    <property name="Water" value="t"/>
   </properties>
  </tile>
  <tile id="779">
   <properties>
    <property name="Passable" value="T"/>
    <property name="Type" value="Wood"/>
   </properties>
  </tile>
  <tile id="780">
   <properties>
    <property name="Passable" value="T"/>
    <property name="Type" value="Wood"/>
   </properties>
  </tile>
  <tile id="781">
   <properties>
    <property name="Passable" value="T"/>
    <property name="Type" value="Wood"/>
   </properties>
  </tile>
  <tile id="782">
   <properties>
    <property name="Passable" value="T"/>
    <property name="Type" value="Wood"/>
   </properties>
  </tile>
  <tile id="809">
   <properties>
    <property name="Passable" value="T"/>
    <property name="Type" value="Wood"/>
   </properties>
  </tile>
  <tile id="812">
   <properties>
    <property name="Type" value="Stone"/>
   </properties>
  </tile>
  <tile id="813">
   <properties>
    <property name="Type" value="Stone"/>
   </properties>
  </tile>
  <tile id="834">
   <properties>
    <property name="Passable" value="T"/>
    <property name="Type" value="Wood"/>
   </properties>
  </tile>
  <tile id="859">
   <properties>
    <property name="Passable" value="T"/>
    <property name="Type" value="Wood"/>
   </properties>
  </tile>
  <tile id="860">
   <properties>
    <property name="Passable" value="T"/>
    <property name="Type" value="Wood"/>
   </properties>
  </tile>
  <tile id="884">
   <properties>
    <property name="Passable" value="T"/>
    <property name="Type" value="Wood"/>
   </properties>
  </tile>
  <tile id="885">
   <properties>
    <property name="Passable" value="T"/>
    <property name="Type" value="Wood"/>
   </properties>
  </tile>
  <tile id="910">
   <properties>
    <property name="Passable" value="T"/>
    <property name="Type" value="Wood"/>
   </properties>
  </tile>
  <tile id="1186">
   <properties>
    <property name="Water" value="T"/>
   </properties>
  </tile>
  <tile id="1187">
   <properties>
    <property name="Water" value="T"/>
   </properties>
  </tile>
  <tile id="1188">
   <properties>
    <property name="Water" value="T"/>
   </properties>
  </tile>
  <tile id="1211">
   <properties>
    <property name="Water" value="T"/>
   </properties>
  </tile>
  <tile id="1212">
   <properties>
    <property name="Water" value="T"/>
   </properties>
  </tile>
  <tile id="1213">
   <properties>
    <property name="Water" value="T"/>
   </properties>
  </tile>
  <tile id="1227">
   <properties>
    <property name="Water" value="T"/>
   </properties>
  </tile>
  <tile id="1228">
   <properties>
    <property name="Water" value="T"/>
   </properties>
  </tile>
  <tile id="1229">
   <properties>
    <property name="Water" value="T"/>
   </properties>
  </tile>
  <tile id="1230">
   <properties>
    <property name="Water" value="T"/>
   </properties>
  </tile>
  <tile id="1231">
   <properties>
    <property name="Water" value="T"/>
   </properties>
  </tile>
  <tile id="1237">
   <properties>
    <property name="Water" value="T"/>
   </properties>
  </tile>
  <tile id="1238">
   <properties>
    <property name="Water" value="T"/>
   </properties>
  </tile>
  <tile id="1239">
   <properties>
    <property name="Water" value="T"/>
   </properties>
  </tile>
  <tile id="1240">
   <properties>
    <property name="Water" value="T"/>
   </properties>
  </tile>
  <tile id="1241">
   <properties>
    <property name="Water" value="T"/>
   </properties>
  </tile>
  <tile id="1242">
   <properties>
    <property name="Water" value="T"/>
   </properties>
  </tile>
  <tile id="1243">
   <properties>
    <property name="Water" value="T"/>
   </properties>
  </tile>
  <tile id="1244">
   <properties>
    <property name="Water" value="T"/>
   </properties>
  </tile>
  <tile id="1245">
   <properties>
    <property name="Water" value="T"/>
   </properties>
  </tile>
  <tile id="1246">
   <properties>
    <property name="Passable" value="F"/>
    <property name="Water" value="T"/>
   </properties>
  </tile>
  <tile id="1247">
   <properties>
    <property name="Water" value="T"/>
   </properties>
  </tile>
  <tile id="1248">
   <properties>
    <property name="Passable" value="F"/>
    <property name="Water" value="T"/>
   </properties>
  </tile>
  <tile id="1249">
   <properties>
    <property name="Passable" value="F"/>
    <property name="Water" value="T"/>
   </properties>
  </tile>
  <tile id="1252">
   <properties>
    <property name="Water" value="T"/>
   </properties>
  </tile>
  <tile id="1253">
   <properties>
    <property name="Water" value="T"/>
   </properties>
  </tile>
  <tile id="1254">
   <properties>
    <property name="Water" value="T"/>
   </properties>
  </tile>
  <tile id="1255">
   <properties>
    <property name="Water" value="T"/>
   </properties>
  </tile>
  <tile id="1256">
   <properties>
    <property name="Water" value="T"/>
   </properties>
  </tile>
  <tile id="1263">
   <properties>
    <property name="Water" value="T"/>
   </properties>
  </tile>
  <tile id="1264">
   <properties>
    <property name="Water" value="T"/>
   </properties>
  </tile>
  <tile id="1265">
   <properties>
    <property name="Water" value="T"/>
   </properties>
  </tile>
  <tile id="1266">
   <properties>
    <property name="Passable" value="F"/>
    <property name="Water" value="T"/>
   </properties>
  </tile>
  <tile id="1267">
   <properties>
    <property name="Passable" value="F"/>
    <property name="Water" value="T"/>
   </properties>
  </tile>
  <tile id="1268">
   <properties>
    <property name="Water" value="T"/>
   </properties>
  </tile>
  <tile id="1269">
   <properties>
    <property name="Water" value="T"/>
    <property name="asdf" value="F"/>
   </properties>
  </tile>
  <tile id="1270">
   <properties>
    <property name="Water" value="T"/>
   </properties>
  </tile>
  <tile id="1271">
   <properties>
    <property name="Passable" value="F"/>
    <property name="Water" value="T"/>
   </properties>
  </tile>
  <tile id="1272">
   <properties>
    <property name="Water" value="T"/>
   </properties>
  </tile>
  <tile id="1273">
   <properties>
    <property name="Water" value="T"/>
   </properties>
  </tile>
  <tile id="1274">
   <properties>
    <property name="Water" value="T"/>
   </properties>
  </tile>
  <tile id="1277">
   <properties>
    <property name="Water" value="T"/>
   </properties>
  </tile>
  <tile id="1278">
   <properties>
    <property name="Water" value="T"/>
   </properties>
  </tile>
  <tile id="1279">
   <properties>
    <property name="Water" value="T"/>
   </properties>
  </tile>
  <tile id="1280">
   <properties>
    <property name="Water" value="T"/>
   </properties>
  </tile>
  <tile id="1281">
   <properties>
    <property name="Water" value="T"/>
   </properties>
  </tile>
  <tile id="1293">
   <animation>
    <frame tileid="1293" duration="450"/>
    <frame tileid="1294" duration="450"/>
    <frame tileid="1295" duration="450"/>
    <frame tileid="1296" duration="450"/>
   </animation>
  </tile>
  <tile id="1297">
   <properties>
    <property name="Water" value="T"/>
   </properties>
  </tile>
  <tile id="1298">
   <properties>
    <property name="Water" value="T"/>
   </properties>
  </tile>
  <tile id="1299">
   <properties>
    <property name="Passable" value="F"/>
    <property name="Water" value="T"/>
   </properties>
  </tile>
  <tile id="1302">
   <properties>
    <property name="Water" value="T"/>
   </properties>
  </tile>
  <tile id="1303">
   <properties>
    <property name="Water" value="T"/>
   </properties>
  </tile>
  <tile id="1304">
   <properties>
    <property name="Water" value="T"/>
   </properties>
  </tile>
  <tile id="1305">
   <properties>
    <property name="Water" value="T"/>
   </properties>
  </tile>
  <tile id="1306">
   <properties>
    <property name="Water" value="T"/>
   </properties>
  </tile>
  <tile id="1318">
   <animation>
    <frame tileid="1318" duration="500"/>
    <frame tileid="1319" duration="500"/>
    <frame tileid="1320" duration="500"/>
    <frame tileid="1321" duration="500"/>
   </animation>
  </tile>
  <tile id="1322">
   <properties>
    <property name="Water" value="T"/>
   </properties>
  </tile>
  <tile id="1323">
   <properties>
    <property name="Water" value="T"/>
   </properties>
  </tile>
  <tile id="1324">
   <properties>
    <property name="Water" value="T"/>
   </properties>
  </tile>
  <tile id="1345">
   <properties>
    <property name="Passable" value="T"/>
   </properties>
  </tile>
  <tile id="1637">
   <properties>
    <property name="Type" value="Wood"/>
   </properties>
  </tile>
  <tile id="1638">
   <properties>
    <property name="Type" value="Wood"/>
   </properties>
  </tile>
  <tile id="1639">
   <properties>
    <property name="Type" value="Wood"/>
   </properties>
  </tile>
  <tile id="1662">
   <properties>
    <property name="Type" value="Wood"/>
   </properties>
  </tile>
  <tile id="1663">
   <properties>
    <property name="Type" value="Wood"/>
   </properties>
  </tile>
  <tile id="1664">
   <properties>
    <property name="Type" value="Wood"/>
   </properties>
  </tile>
  <tile id="1716">
   <properties>
    <property name="Water" value="T"/>
   </properties>
  </tile>
  <tile id="1717">
   <properties>
    <property name="Water" value="T"/>
   </properties>
  </tile>
  <tile id="1718">
   <properties>
    <property name="Water" value="T"/>
   </properties>
  </tile>
 </tileset>
 <tileset firstgid="1976" name="Paths" tilewidth="16" tileheight="16" tilecount="64" columns="4">
  <image source="paths.png" width="64" height="256"/>
  <tile id="0">
   <properties>
    <property name="PathType" value="NE"/>
   </properties>
  </tile>
  <tile id="1">
   <properties>
    <property name="PathType" value="SE"/>
   </properties>
  </tile>
  <tile id="2">
   <properties>
    <property name="PathType" value="WS"/>
   </properties>
  </tile>
  <tile id="3">
   <properties>
    <property name="PathType" value="WN"/>
   </properties>
  </tile>
  <tile id="4">
   <properties>
    <property name="PathType" value="Crossroad"/>
   </properties>
  </tile>
  <tile id="7">
   <properties>
    <property name="PathType" value="End"/>
   </properties>
  </tile>
 </tileset>
 <tileset firstgid="2040" name="town" tilewidth="16" tileheight="16" tilecount="2304" columns="32">
  <image source="spring_town.png" width="512" height="1152"/>
  <tile id="609">
   <properties>
    <property name="Type" value="dirt"/>
   </properties>
  </tile>
  <tile id="641">
   <properties>
    <property name="Type" value="Stone"/>
   </properties>
  </tile>
  <tile id="646">
   <properties>
    <property name="Type" value="Stone"/>
   </properties>
  </tile>
  <tile id="736">
   <properties>
    <property name="Type" value="Stone"/>
   </properties>
  </tile>
  <tile id="737">
   <properties>
    <property name="Type" value="Stone"/>
   </properties>
  </tile>
  <tile id="768">
   <properties>
    <property name="Type" value="Stone"/>
   </properties>
  </tile>
  <tile id="769">
   <properties>
    <property name="Type" value="Stone"/>
   </properties>
  </tile>
  <tile id="770">
   <properties>
    <property name="Type" value="Stone"/>
   </properties>
  </tile>
 </tileset>
 <tileset firstgid="4344" name="spring_EastScarp" tilewidth="16" tileheight="16" tilecount="2375" columns="25">
  <image source="spring_EastScarp.png" width="400" height="1520"/>
 </tileset>
 <tileset firstgid="6719" name="hime_outdoorfurniture" tilewidth="16" tileheight="16" tilecount="1554" columns="42">
  <image source="hime_outdoorfurniture.png" width="672" height="592"/>
 </tileset>
 <tileset firstgid="8273" name="Cambria_Ruins" tilewidth="16" tileheight="16" tilecount="1776" columns="24">
  <image source="LoresCove_Tilesheet.png" width="384" height="1184"/>
 </tileset>
 <layer id="1" name="Back" width="54" height="5">
  <data encoding="csv">
356,356,357,352,352,352,355,356,356,356,356,357,353,176,176,176,176,256,176,176,176,176,176,176,176,176,176,176,176,176,176,176,176,276,176,176,176,176,176,176,176,176,176,176,176,176,176,176,176,176,176,176,176,176,
381,381,383,357,352,352,405,408,381,381,381,382,379,328,176,176,176,176,176,176,326,327,328,176,176,176,176,176,176,176,176,176,176,176,176,176,176,176,176,176,176,176,176,176,176,176,176,176,176,176,176,176,176,176,
406,406,406,407,352,352,301,405,406,406,406,407,352,353,176,256,176,176,176,402,351,330,353,176,176,201,180,181,206,202,180,181,206,202,180,206,204,176,176,176,176,326,327,328,176,176,176,176,176,176,201,204,176,176,
352,352,352,352,352,305,352,352,352,352,352,352,306,379,328,176,176,176,176,176,376,377,378,176,201,203,227,1244,1245,1245,1245,600,1244,1245,1245,1246,178,202,202,204,176,351,330,353,176,401,326,327,328,201,203,229,402,276,
352,352,352,352,352,352,352,352,352,352,352,352,352,305,379,328,176,176,176,176,176,176,176,201,203,599,1244,1269,1270,1270,1270,624,1269,1270,1270,1271,1246,624,489,229,152,376,377,378,176,176,351,330,353,251,253,229,176,326
</data>
 </layer>
 <layer id="7" name="Buildings" width="54" height="5">
  <data encoding="csv">
130,0,0,132,132,132,132,132,132,132,169,170,0,0,0,0,0,0,0,0,0,0,0,0,0,0,0,0,0,0,0,0,0,0,0,0,0,0,0,0,0,0,0,0,0,0,0,0,0,0,0,0,0,0,
132,132,132,132,132,132,0,0,132,132,308,0,0,0,0,0,0,0,0,0,0,0,0,0,0,0,0,0,0,0,0,0,0,0,0,0,0,0,0,0,0,0,0,0,0,0,0,0,0,0,0,0,0,0,
132,14,15,16,105,132,0,0,127,14,15,16,0,0,0,0,0,0,0,0,0,0,0,0,0,0,0,0,0,0,0,0,0,0,0,0,0,0,0,0,0,0,0,0,0,0,0,0,0,0,0,0,0,0,
258,39,40,41,130,0,1,2,3,39,40,41,0,0,0,0,0,0,0,0,0,0,0,0,0,0,0,184,185,185,186,0,184,185,185,186,0,0,0,0,0,0,0,0,0,0,0,0,0,0,0,0,0,0,
1,64,65,66,132,132,26,27,28,64,65,66,0,0,0,0,0,0,0,0,0,0,0,0,0,0,184,284,210,210,211,0,209,210,210,285,186,0,0,0,0,0,0,0,0,0,0,0,0,0,0,0,137,0
</data>
 </layer>
 <objectgroup id="8" name="Buildings"/>
 <layer id="13" name="Paths" width="54" height="5">
  <data encoding="csv">
0,0,0,0,0,0,0,0,0,0,0,0,0,0,0,0,0,0,0,0,1998,0,0,0,0,0,0,0,1998,1998,0,0,0,0,0,0,0,0,0,0,1998,1998,1998,1998,1998,0,0,0,0,0,0,0,0,0,
0,0,0,0,0,0,0,0,0,0,0,0,0,0,0,0,0,0,0,0,0,0,0,0,0,0,0,0,0,0,0,0,0,0,0,0,0,0,0,0,0,0,0,0,0,0,0,0,0,0,0,0,0,0,
0,0,0,0,0,0,0,0,0,0,0,0,0,0,0,0,0,0,0,0,0,1986,0,1998,0,0,0,0,0,0,0,0,0,0,0,0,0,0,0,0,0,0,0,0,0,0,0,0,0,0,0,0,0,0,
0,0,0,0,0,0,0,0,0,0,0,0,0,0,0,0,0,0,0,1998,0,0,0,0,0,0,0,0,0,0,0,0,0,0,0,0,0,0,0,0,0,0,1987,0,0,0,0,0,0,0,0,0,0,0,
0,0,0,0,0,0,0,0,0,0,0,0,0,0,0,0,1998,0,0,0,0,0,0,0,0,0,0,0,0,0,0,0,0,0,0,0,0,0,0,0,0,0,0,0,0,0,0,1986,0,0,0,0,0,0
</data>
 </layer>
 <layer id="15" name="Front" width="54" height="5">
  <data encoding="csv">
0,0,0,54,55,56,0,0,0,0,0,0,0,0,0,0,0,0,0,0,0,0,0,0,0,0,0,0,0,0,0,0,0,0,0,0,0,0,0,0,0,0,0,0,0,0,0,0,0,0,0,0,0,0,
0,0,0,79,80,81,0,0,102,0,0,0,0,0,0,0,0,0,0,0,0,0,0,0,0,0,0,0,0,0,0,0,0,0,0,0,0,0,0,0,0,0,0,0,0,0,0,0,0,0,0,0,0,0,
0,0,0,0,0,0,0,0,0,0,0,0,0,0,0,0,0,0,0,0,0,0,0,0,0,0,0,0,0,0,0,0,0,0,0,0,0,0,0,0,0,0,0,0,0,0,0,0,0,0,0,0,0,88,
0,0,0,0,0,0,0,0,0,0,0,0,0,0,0,0,0,0,0,0,0,0,0,0,0,0,0,0,0,0,0,0,0,0,0,0,0,0,0,0,0,0,0,0,0,0,0,0,0,0,0,0,112,0,
0,0,0,89,90,0,0,0,0,0,0,0,0,0,0,0,0,0,0,0,0,0,0,0,0,0,0,0,0,0,0,0,0,0,0,0,0,0,0,0,0,0,0,0,0,0,0,0,0,0,0,0,0,0
</data>
 </layer>
</map>
