<?xml version="1.0" encoding="UTF-8"?>
<map version="1.10" tiledversion="1.11.2" orientation="orthogonal" renderorder="right-down" compressionlevel="0" width="14" height="5" tilewidth="16" tileheight="16" infinite="0" nextlayerid="14" nextobjectid="188">
  <editorsettings>
    <export format="tmx" />
  </editorsettings>
  <properties>
    <property name="AmbientLight" value="140 140 140" />
    <property name="IndoorWater" type="bool" value="true" />
    <property name="Warp" value="28 17 EastScarp_Village 78 110" />
  </properties>
  <tileset firstgid="1" name="paths" tilewidth="16" tileheight="16" tilecount="64" columns="4">
    <image source="paths" width="64" height="256" />
  </tileset>
  <tileset firstgid="65" name="townInterior" tilewidth="16" tileheight="16" tilecount="2176" columns="32">
    <image source="townInterior" width="512" height="1088" />
  </tileset>
  <tileset firstgid="2241" name="PolyCarts" tilewidth="16" tileheight="16" tilecount="32" columns="8">
    <image source="spring_PolyCarts" width="128" height="64" />
  </tileset>
  <tileset firstgid="2273" name="mine_desert" tilewidth="16" tileheight="16" tilecount="384" columns="16">
    <image source="Mines/mine_desert" width="256" height="384" />
  </tileset>
  <tileset firstgid="2657" name="SeaCaveFix" tilewidth="16" tileheight="16" tilecount="2" columns="1">
    <image source="SeaCaveFix" width="16" height="32" />
  </tileset>
  <layer id="1" name="Back" width="14" height="5">
    <data encoding="csv">
      0,0,0,0,0,0,0,0,0,2442,2443,2491,2459,2508,
      0,0,0,0,0,0,0,0,0,2442,2443,2459,2508,2657,
      2491,2491,2491,2491,2491,2491,2410,2410,2410,2410,2491,2492,2445,2658,
      2507,2507,2507,2507,2458,2491,2491,2491,2491,2442,2443,2444,2445,2658,
      2410,2411,2412,2413,2426,2427,2428,2442,2443,2444,2445,2412,2428,2658
    </data>
  </layer>
  <objectgroup id="2" name="Back">
    <object id="147" name="TileData" x="0" y="48" width="16" height="16">
      <properties>
        <property name="TouchAction" value="Warp EastScarp_DeepDark 46 59" />
      </properties>
    </object>
  </objectgroup>
  <layer id="12" name="Back2" width="14" height="5">
    <properties>
      <property name="Draw" value="Back" />
    </properties>
    <data encoding="csv">
      0,2362,2363,2364,0,0,0,0,0,0,0,0,0,0,
      0,2378,2252,2380,0,0,0,0,0,0,0,0,0,0,
      0,2394,2252,2396,0,0,0,0,0,0,0,0,0,0,
      2244,2244,2269,0,0,0,0,0,0,0,0,0,0,0,
      0,0,0,0,0,0,0,0,0,0,0,0,0,0
    </data>
  </layer>
  <layer id="3" name="Buildings" width="14" height="5">
    <data encoding="csv">
      2364,2254,2255,2256,2296,2382,2348,2280,2281,2358,2359,2360,0,0,
      2380,2262,2263,2264,2312,2386,2364,2296,2297,2374,2370,2376,0,0,
      2396,2270,2271,2272,2328,2414,2380,2312,2313,2390,2391,2392,0,0,
      0,0,0,0,1432,2430,2396,2328,2329,2406,2407,0,0,0,
      2368,1424,1425,0,0,0,0,0,0,0,0,0,0,0
    </data>
  </layer>
  <objectgroup id="4" name="Buildings">
    <object id="102" name="TileData" x="32" y="32" width="16" height="16">
      <properties>
        <property name="Action" value="Message &quot;SeaCave.10&quot;" />
      </properties>
    </object>
  </objectgroup>
  <layer id="5" name="Front" width="14" height="5">
    <data encoding="csv">
      2357,0,0,0,0,0,0,0,0,0,0,0,0,0,
      2373,0,0,0,0,0,0,0,0,0,0,0,0,0,
      2389,0,0,0,1400,0,0,0,0,0,0,0,0,0,
      2453,1392,1393,0,0,0,0,0,0,0,0,0,0,0,
      2469,2470,1400,1392,1393,0,0,2478,2487,2488,2470,0,0,0
    </data>
  </layer>
  <layer id="7" name="Paths" width="14" height="5">
    <data encoding="csv">
      0,0,0,0,0,0,0,0,0,0,0,0,0,0,
      0,0,0,0,0,9,0,0,0,0,9,0,0,0,
      0,0,0,0,0,0,0,0,0,0,0,0,0,0,
      0,0,0,0,0,0,0,0,0,0,0,9,0,0,
      0,0,0,0,0,0,0,0,0,0,0,0,0,0
    </data>
  </layer>
</map>