<?xml version="1.0" encoding="UTF-8"?>
<map version="1.10" tiledversion="1.11.2" orientation="orthogonal" renderorder="right-down" compressionlevel="0" width="1" height="1" tilewidth="16" tileheight="16" infinite="0" nextlayerid="11" nextobjectid="9">
  <tileset firstgid="1" name="animations" tilewidth="16" tileheight="16" tilecount="9" columns="9">
    <image source="MineCartSteam" width="144" height="16" />
    <tile id="0">
      <animation>
        <frame tileid="0" duration="90" />
        <frame tileid="1" duration="90" />
        <frame tileid="2" duration="90" />
        <frame tileid="3" duration="90" />
        <frame tileid="4" duration="90" />
        <frame tileid="5" duration="90" />
        <frame tileid="6" duration="90" />
        <frame tileid="7" duration="90" />
        <frame tileid="8" duration="90" />
      </animation>
    </tile>
  </tileset>
  <layer id="4" name="AlwaysFront" width="1" height="1">
    <data encoding="csv">
      0
    </data>
  </layer>
</map>