<?xml version="1.0" encoding="UTF-8"?>
<map version="1.10" tiledversion="1.11.2" orientation="orthogonal" renderorder="right-down" compressionlevel="0" width="17" height="7" tilewidth="16" tileheight="16" infinite="0" nextlayerid="13" nextobjectid="22">
  <properties>
    <property name="AmbientLight" value="200 120 120" />
    <property name="IndoorWater" type="bool" value="true" />
    <property name="LocationContext" value="Lemurkat_EastScarp" />
    <property name="Music" value="EarthMine" />
    <property name="Warp" value="21 15 EastScarp_Village 35 38" />
  </properties>
  <tileset firstgid="1" name="mine_desert" tilewidth="16" tileheight="16" tilecount="384" columns="16">
    <image source="ES_mine_desert" width="256" height="384" />
    <tile id="137">
      <properties>
        <property name="Type" value="Dirt" />
      </properties>
    </tile>
    <tile id="138">
      <properties>
        <property name="Type" value="Dirt" />
      </properties>
    </tile>
    <tile id="139">
      <properties>
        <property name="Type" value="Dirt" />
      </properties>
    </tile>
    <tile id="140">
      <properties>
        <property name="Type" value="Dirt" />
      </properties>
    </tile>
    <tile id="149">
      <properties>
        <property name="Type" value="Dirt" />
      </properties>
    </tile>
    <tile id="150">
      <properties>
        <property name="Type" value="Dirt" />
      </properties>
    </tile>
    <tile id="151">
      <properties>
        <property name="Type" value="Dirt" />
      </properties>
    </tile>
    <tile id="152">
      <properties>
        <property name="Type" value="Dirt" />
      </properties>
    </tile>
    <tile id="153">
      <properties>
        <property name="Type" value="Dirt" />
      </properties>
    </tile>
    <tile id="154">
      <properties>
        <property name="Type" value="Dirt" />
      </properties>
    </tile>
    <tile id="155">
      <properties>
        <property name="Type" value="Dirt" />
      </properties>
    </tile>
    <tile id="156">
      <properties>
        <property name="Type" value="Dirt" />
      </properties>
    </tile>
    <tile id="165">
      <properties>
        <property name="Diggable" value="t" />
        <property name="Type" value="Dirt" />
      </properties>
    </tile>
    <tile id="166">
      <properties>
        <property name="Type" value="Dirt" />
      </properties>
    </tile>
    <tile id="167">
      <properties>
        <property name="Type" value="Dirt" />
      </properties>
    </tile>
    <tile id="168">
      <properties>
        <property name="Type" value="Dirt" />
      </properties>
    </tile>
    <tile id="169">
      <properties>
        <property name="Type" value="Dirt" />
      </properties>
    </tile>
    <tile id="170">
      <properties>
        <property name="Type" value="Dirt" />
      </properties>
    </tile>
    <tile id="171">
      <properties>
        <property name="Type" value="Dirt" />
      </properties>
    </tile>
    <tile id="172">
      <properties>
        <property name="Type" value="Dirt" />
      </properties>
    </tile>
    <tile id="181">
      <properties>
        <property name="Diggable" value="t" />
        <property name="Type" value="Dirt" />
      </properties>
    </tile>
    <tile id="182">
      <properties>
        <property name="Type" value="Dirt" />
      </properties>
    </tile>
    <tile id="183">
      <properties>
        <property name="Diggable" value="t" />
        <property name="Type" value="Dirt" />
      </properties>
    </tile>
    <tile id="184">
      <properties>
        <property name="Type" value="Dirt" />
      </properties>
    </tile>
    <tile id="185">
      <properties>
        <property name="Type" value="Dirt" />
      </properties>
    </tile>
    <tile id="186">
      <properties>
        <property name="Type" value="Dirt" />
      </properties>
    </tile>
    <tile id="187">
      <properties>
        <property name="Type" value="Dirt" />
      </properties>
    </tile>
    <tile id="188">
      <properties>
        <property name="Type" value="Dirt" />
      </properties>
    </tile>
    <tile id="198">
      <properties>
        <property name="Type" value="Dirt" />
      </properties>
    </tile>
    <tile id="199">
      <properties>
        <property name="Type" value="Dirt" />
      </properties>
    </tile>
    <tile id="200">
      <properties>
        <property name="Type" value="Dirt" />
      </properties>
    </tile>
    <tile id="201">
      <properties>
        <property name="Type" value="Dirt" />
      </properties>
    </tile>
    <tile id="202">
      <properties>
        <property name="Type" value="Dirt" />
      </properties>
    </tile>
    <tile id="203">
      <properties>
        <property name="Type" value="Dirt" />
      </properties>
    </tile>
    <tile id="217">
      <properties>
        <property name="Type" value="Dirt" />
      </properties>
    </tile>
    <tile id="218">
      <properties>
        <property name="Type" value="Dirt" />
      </properties>
    </tile>
    <tile id="219">
      <properties>
        <property name="Type" value="Dirt" />
      </properties>
    </tile>
    <tile id="233">
      <properties>
        <property name="Type" value="Dirt" />
      </properties>
    </tile>
    <tile id="234">
      <properties>
        <property name="Type" value="Dirt" />
      </properties>
    </tile>
    <tile id="235">
      <properties>
        <property name="Type" value="Dirt" />
      </properties>
    </tile>
    <tile id="243">
      <animation>
        <frame tileid="243" duration="1000" />
        <frame tileid="291" duration="1000" />
      </animation>
    </tile>
    <tile id="244">
      <animation>
        <frame tileid="244" duration="1000" />
        <frame tileid="292" duration="1000" />
      </animation>
    </tile>
    <tile id="245">
      <animation>
        <frame tileid="245" duration="1000" />
        <frame tileid="293" duration="1000" />
      </animation>
    </tile>
    <tile id="249">
      <animation>
        <frame tileid="294" duration="1000" />
        <frame tileid="249" duration="1000" />
      </animation>
    </tile>
    <tile id="250">
      <animation>
        <frame tileid="295" duration="1000" />
        <frame tileid="250" duration="1000" />
      </animation>
    </tile>
    <tile id="259">
      <animation>
        <frame tileid="259" duration="1000" />
        <frame tileid="307" duration="1000" />
      </animation>
    </tile>
    <tile id="261">
      <animation>
        <frame tileid="261" duration="1000" />
        <frame tileid="309" duration="1000" />
      </animation>
    </tile>
  </tileset>
  <tileset firstgid="385" name="Landscape" tilewidth="16" tileheight="16" tilecount="1975" columns="25">
    <image source="DeepDark_outdoorsTileSheet" width="400" height="1264" />
    <tile id="512">
      <properties>
        <property name="Diggable" value="t" />
        <property name="Type" value="dirt" />
      </properties>
    </tile>
    <tile id="530">
      <properties>
        <property name="Diggable" value="t" />
        <property name="Type" value="dirt" />
      </properties>
    </tile>
    <tile id="531">
      <properties>
        <property name="Diggable" value="t" />
        <property name="Type" value="dirt" />
      </properties>
    </tile>
    <tile id="532">
      <properties>
        <property name="Diggable" value="t" />
        <property name="Type" value="dirt" />
      </properties>
    </tile>
    <tile id="536">
      <properties>
        <property name="Diggable" value="t" />
        <property name="Type" value="dirt" />
      </properties>
    </tile>
    <tile id="537">
      <properties>
        <property name="Diggable" value="t" />
        <property name="Type" value="dirt" />
      </properties>
    </tile>
    <tile id="538">
      <properties>
        <property name="Diggable" value="t" />
        <property name="Type" value="dirt" />
      </properties>
    </tile>
    <tile id="555">
      <properties>
        <property name="Diggable" value="t" />
        <property name="Type" value="dirt" />
      </properties>
    </tile>
    <tile id="556">
      <properties>
        <property name="Diggable" value="t" />
        <property name="Type" value="dirt" />
      </properties>
    </tile>
    <tile id="557">
      <properties>
        <property name="Diggable" value="t" />
        <property name="Type" value="dirt" />
      </properties>
    </tile>
    <tile id="558">
      <properties>
        <property name="Diggable" value="t" />
        <property name="Type" value="dirt" />
      </properties>
    </tile>
    <tile id="560">
      <properties>
        <property name="Diggable" value="t" />
        <property name="Type" value="dirt" />
      </properties>
    </tile>
    <tile id="561">
      <properties>
        <property name="Diggable" value="t" />
        <property name="Type" value="dirt" />
      </properties>
    </tile>
    <tile id="562">
      <properties>
        <property name="Diggable" value="t" />
        <property name="Type" value="dirt" />
      </properties>
    </tile>
    <tile id="563">
      <properties>
        <property name="Diggable" value="t" />
        <property name="Type" value="dirt" />
      </properties>
    </tile>
    <tile id="564">
      <properties>
        <property name="Diggable" value="t" />
        <property name="Type" value="dirt" />
      </properties>
    </tile>
    <tile id="565">
      <properties>
        <property name="Diggable" value="t" />
        <property name="Type" value="dirt" />
      </properties>
    </tile>
    <tile id="566">
      <properties>
        <property name="Diggable" value="t" />
        <property name="Type" value="dirt" />
      </properties>
    </tile>
    <tile id="580">
      <properties>
        <property name="Diggable" value="t" />
        <property name="Type" value="dirt" />
      </properties>
    </tile>
    <tile id="581">
      <properties>
        <property name="Diggable" value="t" />
        <property name="Type" value="dirt" />
      </properties>
    </tile>
    <tile id="582">
      <properties>
        <property name="Diggable" value="t" />
        <property name="Type" value="dirt" />
      </properties>
    </tile>
    <tile id="583">
      <properties>
        <property name="Diggable" value="t" />
        <property name="Type" value="dirt" />
      </properties>
    </tile>
    <tile id="585">
      <properties>
        <property name="Diggable" value="t" />
        <property name="Type" value="dirt" />
      </properties>
    </tile>
    <tile id="586">
      <properties>
        <property name="Diggable" value="t" />
        <property name="Type" value="dirt" />
      </properties>
    </tile>
    <tile id="587">
      <properties>
        <property name="Diggable" value="t" />
        <property name="Type" value="dirt" />
      </properties>
    </tile>
    <tile id="588">
      <properties>
        <property name="Diggable" value="t" />
        <property name="Type" value="dirt" />
      </properties>
    </tile>
    <tile id="589">
      <properties>
        <property name="Diggable" value="t" />
        <property name="Type" value="dirt" />
      </properties>
    </tile>
    <tile id="590">
      <properties>
        <property name="Diggable" value="t" />
        <property name="Type" value="dirt" />
      </properties>
    </tile>
    <tile id="591">
      <properties>
        <property name="Diggable" value="t" />
        <property name="Type" value="dirt" />
      </properties>
    </tile>
    <tile id="606">
      <properties>
        <property name="Diggable" value="t" />
        <property name="Type" value="dirt" />
      </properties>
    </tile>
    <tile id="607">
      <properties>
        <property name="Diggable" value="t" />
        <property name="Type" value="dirt" />
      </properties>
    </tile>
    <tile id="608">
      <properties>
        <property name="Diggable" value="t" />
        <property name="Type" value="dirt" />
      </properties>
    </tile>
    <tile id="610">
      <properties>
        <property name="Diggable" value="t" />
        <property name="Type" value="dirt" />
      </properties>
    </tile>
    <tile id="611">
      <properties>
        <property name="Diggable" value="t" />
        <property name="Type" value="dirt" />
      </properties>
    </tile>
    <tile id="612">
      <properties>
        <property name="Diggable" value="t" />
        <property name="Type" value="dirt" />
      </properties>
    </tile>
    <tile id="613">
      <properties>
        <property name="Diggable" value="t" />
        <property name="Type" value="dirt" />
      </properties>
    </tile>
    <tile id="614">
      <properties>
        <property name="Diggable" value="t" />
        <property name="Type" value="dirt" />
      </properties>
    </tile>
    <tile id="615">
      <properties>
        <property name="Diggable" value="t" />
        <property name="Type" value="dirt" />
      </properties>
    </tile>
    <tile id="616">
      <properties>
        <property name="Diggable" value="t" />
        <property name="Type" value="dirt" />
      </properties>
    </tile>
    <tile id="617">
      <properties>
        <property name="Diggable" value="t" />
        <property name="Type" value="dirt" />
      </properties>
    </tile>
    <tile id="618">
      <properties>
        <property name="Diggable" value="t" />
        <property name="Type" value="dirt" />
      </properties>
    </tile>
    <tile id="630">
      <properties>
        <property name="Diggable" value="t" />
        <property name="Type" value="dirt" />
      </properties>
    </tile>
    <tile id="680">
      <properties>
        <property name="Diggable" value="t" />
        <property name="Type" value="dirt" />
      </properties>
    </tile>
    <tile id="681">
      <properties>
        <property name="Diggable" value="t" />
        <property name="Type" value="dirt" />
      </properties>
    </tile>
    <tile id="685">
      <properties>
        <property name="Diggable" value="t" />
        <property name="Type" value="dirt" />
      </properties>
    </tile>
    <tile id="708">
      <animation>
        <frame tileid="708" duration="1000" />
        <frame tileid="1234" duration="1000" />
      </animation>
    </tile>
    <tile id="709">
      <animation>
        <frame tileid="709" duration="1000" />
        <frame tileid="1235" duration="1000" />
      </animation>
    </tile>
    <tile id="710">
      <animation>
        <frame tileid="710" duration="1000" />
        <frame tileid="1236" duration="1000" />
      </animation>
    </tile>
    <tile id="733">
      <animation>
        <frame tileid="733" duration="1000" />
        <frame tileid="1259" duration="1000" />
      </animation>
    </tile>
    <tile id="735">
      <animation>
        <frame tileid="735" duration="1000" />
        <frame tileid="1261" duration="1000" />
      </animation>
    </tile>
    <tile id="760">
      <animation>
        <frame tileid="760" duration="1000" />
        <frame tileid="1286" duration="1000" />
      </animation>
    </tile>
    <tile id="1227">
      <properties>
        <property name="Water" value="T" />
      </properties>
    </tile>
    <tile id="1228">
      <properties>
        <property name="Water" value="T" />
      </properties>
    </tile>
    <tile id="1229">
      <properties>
        <property name="Water" value="T" />
      </properties>
    </tile>
    <tile id="1230">
      <properties>
        <property name="Water" value="T" />
      </properties>
    </tile>
    <tile id="1231">
      <properties>
        <property name="Water" value="T" />
      </properties>
    </tile>
    <tile id="1240">
      <properties>
        <property name="Water" value="T" />
      </properties>
    </tile>
    <tile id="1241">
      <properties>
        <property name="Water" value="T" />
      </properties>
    </tile>
    <tile id="1242">
      <properties>
        <property name="Water" value="T" />
      </properties>
    </tile>
    <tile id="1243">
      <properties>
        <property name="Water" value="T" />
      </properties>
    </tile>
    <tile id="1244">
      <properties>
        <property name="Water" value="T" />
      </properties>
    </tile>
    <tile id="1245">
      <properties>
        <property name="Water" value="T" />
      </properties>
    </tile>
    <tile id="1246">
      <properties>
        <property name="Water" value="T" />
      </properties>
    </tile>
    <tile id="1247">
      <properties>
        <property name="Water" value="T" />
      </properties>
    </tile>
    <tile id="1248">
      <properties>
        <property name="Water" value="T" />
      </properties>
    </tile>
    <tile id="1249">
      <properties>
        <property name="Water" value="T" />
      </properties>
    </tile>
    <tile id="1252">
      <properties>
        <property name="Water" value="T" />
      </properties>
    </tile>
    <tile id="1253">
      <properties>
        <property name="Water" value="T" />
      </properties>
    </tile>
    <tile id="1254">
      <properties>
        <property name="Water" value="T" />
      </properties>
    </tile>
    <tile id="1255">
      <properties>
        <property name="Water" value="T" />
      </properties>
    </tile>
    <tile id="1256">
      <properties>
        <property name="Water" value="T" />
      </properties>
    </tile>
    <tile id="1265">
      <properties>
        <property name="Water" value="T" />
      </properties>
    </tile>
    <tile id="1266">
      <properties>
        <property name="Water" value="T" />
      </properties>
    </tile>
    <tile id="1267">
      <properties>
        <property name="Water" value="T" />
      </properties>
    </tile>
    <tile id="1268">
      <properties>
        <property name="Water" value="T" />
      </properties>
    </tile>
    <tile id="1269">
      <properties>
        <property name="Water" value="T" />
      </properties>
    </tile>
    <tile id="1270">
      <properties>
        <property name="Water" value="T" />
      </properties>
    </tile>
    <tile id="1271">
      <properties>
        <property name="Water" value="T" />
      </properties>
    </tile>
    <tile id="1272">
      <properties>
        <property name="Water" value="T" />
      </properties>
    </tile>
    <tile id="1273">
      <properties>
        <property name="Water" value="T" />
      </properties>
    </tile>
    <tile id="1274">
      <properties>
        <property name="Water" value="T" />
      </properties>
    </tile>
    <tile id="1277">
      <properties>
        <property name="Water" value="T" />
      </properties>
    </tile>
    <tile id="1278">
      <properties>
        <property name="Water" value="T" />
      </properties>
    </tile>
    <tile id="1279">
      <properties>
        <property name="Water" value="T" />
      </properties>
    </tile>
    <tile id="1280">
      <properties>
        <property name="Water" value="T" />
      </properties>
    </tile>
    <tile id="1281">
      <properties>
        <property name="Water" value="T" />
      </properties>
    </tile>
    <tile id="1287">
      <animation>
        <frame tileid="1287" duration="1000" />
        <frame tileid="1314" duration="1000" />
      </animation>
    </tile>
    <tile id="1288">
      <animation>
        <frame tileid="1288" duration="1000" />
        <frame tileid="1289" duration="1000" />
      </animation>
    </tile>
    <tile id="1297">
      <properties>
        <property name="Water" value="T" />
      </properties>
    </tile>
    <tile id="1298">
      <properties>
        <property name="Water" value="T" />
      </properties>
    </tile>
    <tile id="1299">
      <properties>
        <property name="Water" value="T" />
      </properties>
    </tile>
    <tile id="1302">
      <properties>
        <property name="Water" value="T" />
      </properties>
    </tile>
    <tile id="1303">
      <properties>
        <property name="Water" value="T" />
      </properties>
    </tile>
    <tile id="1304">
      <properties>
        <property name="Water" value="T" />
      </properties>
    </tile>
    <tile id="1305">
      <properties>
        <property name="Water" value="T" />
      </properties>
    </tile>
    <tile id="1306">
      <properties>
        <property name="Water" value="T" />
      </properties>
    </tile>
    <tile id="1322">
      <properties>
        <property name="Water" value="T" />
      </properties>
    </tile>
    <tile id="1323">
      <properties>
        <property name="Water" value="T" />
      </properties>
    </tile>
    <tile id="1324">
      <properties>
        <property name="Water" value="T" />
      </properties>
    </tile>
  </tileset>
  <tileset firstgid="2360" name="townInterior" tilewidth="16" tileheight="16" tilecount="2176" columns="32">
    <image source="townInterior" width="512" height="1088" />
  </tileset>
  <tileset firstgid="4536" name="paths" tilewidth="16" tileheight="16" tilecount="64" columns="4">
    <image source="paths" width="64" height="256" />
  </tileset>
  <tileset firstgid="4600" name="fall_town" tilewidth="16" tileheight="16" tilecount="2304" columns="32">
    <image source="fall_town" width="512" height="1152" />
  </tileset>
  <tileset firstgid="6904" name="lemurfurniture" tilewidth="16" tileheight="16" tilecount="3264" columns="32">
    <image source="lemurfurniture" width="512" height="1632" />
  </tileset>
  <layer id="1" name="Back" width="17" height="7">
    <data encoding="csv">
      0,0,0,0,154,199,170,218,219,219,220,247,248,248,248,248,79,
      0,154,154,219,220,171,173,218,219,219,220,277,277,277,277,277,277,
      154,219,219,187,236,141,155,234,235,235,236,277,277,277,277,277,277,
      219,219,187,236,140,170,171,141,156,154,155,156,139,140,138,139,140,
      219,219,220,155,156,154,155,138,139,140,138,154,155,156,154,155,156,
      219,219,188,204,172,170,171,172,170,171,172,170,171,172,170,171,172,
      219,219,219,188,204,154,155,154,154,154,154,154,154,155,156,139,139
    </data>
  </layer>
  <layer id="11" name="Back2" width="17" height="7">
    <properties>
      <property name="Draw" value="Back" />
    </properties>
    <data encoding="csv">
      0,0,0,0,0,0,0,0,0,0,0,0,0,0,0,0,0,
      0,0,0,0,0,0,0,0,0,0,0,0,245,245,245,245,245,
      0,0,0,0,0,0,0,0,0,0,0,260,0,0,0,0,280,
      0,0,0,0,0,0,0,0,0,0,0,0,0,0,0,0,0,
      0,0,0,0,0,0,0,0,0,0,0,0,0,0,0,0,0,
      0,0,0,0,0,0,0,0,0,0,0,0,0,0,0,0,0,
      0,0,0,0,0,0,0,0,0,0,0,0,0,0,0,0,0
    </data>
  </layer>
  <layer id="3" name="Buildings" width="17" height="7">
    <data encoding="csv">
      85,102,103,118,119,120,0,121,56,123,124,53,54,55,142,143,144,
      101,118,119,134,135,0,0,0,0,0,0,244,0,0,158,159,160,
      117,134,135,0,0,0,0,0,0,0,0,279,280,280,280,280,208,
      133,0,0,0,0,0,0,0,0,0,0,0,0,0,0,0,192,
      149,0,0,0,0,0,0,0,0,0,0,0,0,0,0,206,222,
      96,0,0,0,0,0,288,0,0,0,0,0,0,0,206,207,79,
      96,215,216,215,216,215,216,216,216,216,217,0,0,221,222,79,79
    </data>
  </layer>
  <objectgroup id="4" name="Buildings" />
  <layer id="5" name="Front" width="17" height="7">
    <data encoding="csv">
      85,0,0,0,0,0,0,0,0,0,0,0,0,0,0,0,0,
      101,0,0,0,0,0,0,0,0,0,0,0,0,0,0,0,0,
      117,0,0,0,0,0,0,0,0,0,0,0,0,0,0,0,208,
      133,0,0,0,0,0,0,0,0,0,0,0,0,0,0,0,0,
      149,0,0,0,0,0,272,0,0,0,0,0,0,0,0,0,0,
      214,198,0,0,0,0,0,0,0,0,0,0,0,0,0,0,0,
      96,214,215,216,215,216,0,216,216,215,216,217,0,0,0,0,0
    </data>
  </layer>
  <layer id="7" name="Paths" width="17" height="7">
    <data encoding="csv">
      0,0,0,0,0,0,0,0,0,0,0,0,0,0,0,0,0,
      0,0,0,0,0,0,0,0,0,0,0,0,0,0,0,0,0,
      0,0,0,0,0,0,0,0,0,0,0,0,0,0,0,0,0,
      0,0,0,0,0,0,0,0,0,0,0,0,0,0,0,0,0,
      0,0,0,0,0,0,0,0,0,0,0,0,0,0,0,0,0,
      0,0,0,0,0,0,0,0,0,0,0,4544,4544,4544,0,0,0,
      0,0,0,0,0,0,0,0,0,0,0,4544,0,4544,0,0,0
    </data>
  </layer>
  <layer id="9" name="AlwaysFront" width="17" height="7">
    <data encoding="csv">
      0,0,0,0,0,0,0,0,0,0,0,0,0,0,0,0,0,
      0,0,0,0,0,0,0,0,0,0,0,0,0,0,0,0,0,
      0,0,0,0,0,0,0,0,0,0,0,0,0,0,0,0,0,
      0,0,0,0,0,0,0,0,0,0,0,0,0,0,0,0,0,
      0,0,0,0,0,0,0,0,0,0,0,0,0,0,0,0,0,
      0,0,0,0,0,0,0,0,0,0,0,0,0,0,0,0,0,
      0,0,0,0,0,0,0,0,0,0,0,0,0,0,0,0,0
    </data>
  </layer>
</map>